; G-Code generated by Simplify3D(R) Version 3.1.0
; Oct 13, 2016 at 2:20:16 AM
; Settings Summary
;   processName,Process1
;   applyToModels,gear_flanged
;   profileName,SeeMeCNC Orion (modified)
;   profileVersion,2016-10-10 09:45:44
;   baseProfile,
;   printMaterial,PLA
;   printQuality,Medium
;   printExtruders,
;   extruderName,Primary Extruder
;   extruderToolheadNumber,0
;   extruderDiameter,0.5
;   extruderAutoWidth,1
;   extruderWidth,0.6
;   extrusionMultiplier,1
;   extruderUseRetract,1
;   extruderRetractionDistance,8.4
;   extruderExtraRestartDistance,0
;   extruderRetractionZLift,0.1
;   extruderRetractionSpeed,3600
;   extruderUseCoasting,0
;   extruderCoastingDistance,1
;   extruderUseWipe,0
;   extruderWipeDistance,5
;   primaryExtruder,0
;   layerHeight,0.2
;   topSolidLayers,3
;   bottomSolidLayers,3
;   perimeterOutlines,3
;   printPerimetersInsideOut,1
;   startPointOption,2
;   startPointOriginX,0
;   startPointOriginY,0
;   startPointOriginZ,300
;   sequentialIslands,0
;   spiralVaseMode,0
;   firstLayerHeightPercentage,100
;   firstLayerWidthPercentage,200
;   firstLayerUnderspeed,0.3
;   useRaft,0
;   raftExtruder,0
;   raftLayers,3
;   raftOffset,3
;   raftSeparationDistance,0.14
;   raftInfill,85
;   disableRaftBaseLayers,0
;   useSkirt,1
;   skirtExtruder,0
;   skirtLayers,1
;   skirtOutlines,3
;   skirtOffset,2
;   usePrimePillar,0
;   primePillarExtruder,999
;   primePillarWidth,12
;   primePillarLocation,7
;   primePillarSpeedMultiplier,1
;   useOozeShield,0
;   oozeShieldExtruder,999
;   oozeShieldOffset,2
;   oozeShieldOutlines,1
;   oozeShieldSidewallShape,1
;   oozeShieldSidewallAngle,30
;   oozeShieldSpeedMultiplier,1
;   infillExtruder,0
;   internalInfillPattern,Fast Honeycomb
;   externalInfillPattern,Rectilinear
;   infillPercentage,25
;   outlineOverlapPercentage,15
;   infillExtrusionWidthPercentage,150
;   minInfillLength,5
;   infillLayerInterval,1
;   infillAngles,0
;   overlapInfillAngles,0
;   generateSupport,1
;   supportExtruder,0
;   supportInfillPercentage,25
;   supportExtraInflation,0
;   denseSupportLayers,0
;   denseSupportInfillPercentage,70
;   supportLayerInterval,1
;   supportHorizontalPartOffset,1
;   supportUpperSeparationLayers,1
;   supportLowerSeparationLayers,1
;   supportType,0
;   supportGridSpacing,4
;   maxOverhangAngle,45
;   supportAngles,45
;   temperatureName,Primary Extruder,Heated Bed
;   temperatureNumber,0,1
;   temperatureSetpointCount,2,1
;   temperatureSetpointLayers,1,2,1
;   temperatureSetpointTemperatures,215,200,60
;   temperatureStabilizeAtStartup,1,1
;   temperatureHeatedBed,0,1
;   temperatureRelayBetweenLayers,0,0
;   temperatureRelayBetweenLoops,0,0
;   fanLayers,1,2
;   fanSpeeds,0,100
;   blipFanToFullPower,1
;   adjustSpeedForCooling,1
;   minSpeedLayerTime,15
;   minCoolingSpeedSlowdown,20
;   increaseFanForCooling,0
;   minFanLayerTime,60
;   maxCoolingFanSpeed,100
;   increaseFanForBridging,0
;   bridgingFanSpeed,100
;   use5D,1
;   relativeEdistances,0
;   allowEaxisZeroing,1
;   independentExtruderAxes,0
;   includeM10123,0
;   stickySupport,1
;   applyToolheadOffsets,0
;   gcodeXoffset,0
;   gcodeYoffset,0
;   gcodeZoffset,0
;   overrideMachineDefinition,1
;   machineTypeOverride,1
;   strokeXoverride,108
;   strokeYoverride,108
;   strokeZoverride,241
;   originOffsetXoverride,54
;   originOffsetYoverride,54
;   originOffsetZoverride,0
;   homeXdirOverride,0
;   homeYdirOverride,0
;   homeZdirOverride,1
;   flipXoverride,1
;   flipYoverride,-1
;   flipZoverride,1
;   toolheadOffsets,0,0|0,0|0,0|0,0|0,0|0,0
;   overrideFirmwareConfiguration,1
;   firmwareTypeOverride,RepRap (Marlin/Repetier/Sprinter)
;   GPXconfigOverride,r2
;   baudRateOverride,250000
;   overridePrinterModels,1
;   printerModelsOverride
;   startingGcode,G28 ; home all axes
;   layerChangeGcode,
;   retractionGcode,
;   toolChangeGcode,
;   endingGcode,M104 S0 ; turn off extruder,M140 S0 ; turn off bed,G28 ; home axes,M84 ; disable motors
;   exportFileFormat,gcode
;   celebration,0
;   celebrationSong,Random Song
;   postProcessing,
;   defaultSpeed,4800
;   outlineUnderspeed,0.5
;   solidInfillUnderspeed,0.8
;   supportUnderspeed,0.8
;   rapidXYspeed,9000
;   rapidZspeed,1200
;   minBridgingArea,50
;   bridgingExtraInflation,0
;   bridgingExtrusionMultiplier,0.95
;   bridgingSpeedMultiplier,0.7
;   filamentDiameter,1.75
;   filamentPricePerKg,46
;   filamentDensity,1.25
;   useMinPrintHeight,0
;   minPrintHeight,0
;   useMaxPrintHeight,0
;   maxPrintHeight,0
;   useDiaphragm,0
;   diaphragmLayerInterval,20
;   robustSlicing,1
;   mergeAllIntoSolid,0
;   onlyRetractWhenCrossingOutline,1
;   retractBetweenLayers,1
;   useRetractionMinTravel,0
;   retractionMinTravel,3
;   retractWhileWiping,1
;   onlyWipeOutlines,1
;   avoidCrossingOutline,0
;   maxMovementDetourFactor,3
;   toolChangeRetractionDistance,12
;   toolChangeExtraRestartDistance,-0.5
;   toolChangeRetractionSpeed,600
;   allowThinWallGapFill,1
;   thinWallAllowedOverlapPercentage,10
;   horizontalSizeCompensation,0
G90
M82
M106 S0
M140 S60
M190 S60
M104 S215 T0
M109 S215 T0
G28 ; home all axes
G92 E0
G1 E-8.4000 F3600
G1 Z0.300 F1200
; layer 1, Z = 0.2
T0
; tool H0.200 W1.200
; skirt
G1 X2.945 Y21.018 F9000
G1 Z0.200 F1200
G1 E0.0000 F1080
G92 E0
G1 X2.923 Y21.021 E0.0022 F1440
G1 X2.841 Y21.032 E0.0105
G1 X2.818 Y21.035 E0.0128
G1 X1.665 Y21.158 E0.1285
G1 X1.642 Y21.160 E0.1308
G1 X1.559 Y21.166 E0.1391
G1 X1.536 Y21.167 E0.1414
G1 X0.383 Y21.220 E0.2565
G1 X0.361 Y21.220 E0.2588
G1 X0.278 Y21.222 E0.2671
G1 X0.255 Y21.222 E0.2694
G1 X-0.899 Y21.204 E0.3845
G1 X-0.921 Y21.203 E0.3867
G1 X-1.004 Y21.200 E0.3950
G1 X-1.027 Y21.198 E0.3973
G1 X-2.177 Y21.111 E0.5124
G1 X-2.200 Y21.109 E0.5147
G1 X-2.282 Y21.100 E0.5229
G1 X-2.305 Y21.098 E0.5252
G1 X-3.448 Y20.941 E0.6403
G1 X-3.471 Y20.938 E0.6426
G1 X-3.553 Y20.924 E0.6509
G1 X-3.575 Y20.920 E0.6531
G1 X-4.706 Y20.695 E0.7682
G1 X-4.728 Y20.690 E0.7705
G1 X-4.809 Y20.671 E0.7788
G1 X-4.831 Y20.666 E0.7810
G1 X-5.944 Y20.374 E0.8958
G1 X-5.965 Y20.368 E0.8981
G1 X-6.045 Y20.344 E0.9064
G1 X-6.067 Y20.338 E0.9086
G1 X-7.160 Y19.979 E1.0234
G1 X-7.181 Y19.971 E1.0257
G1 X-7.259 Y19.943 E1.0339
G1 X-7.280 Y19.935 E1.0362
G1 X-8.358 Y19.508 E1.1519
G1 X-8.379 Y19.499 E1.1542
G1 X-8.456 Y19.466 E1.1625
G1 X-8.477 Y19.457 E1.1648
G1 X-9.522 Y18.967 E1.2799
G1 X-9.542 Y18.957 E1.2822
G1 X-9.617 Y18.920 E1.2905
G1 X-9.636 Y18.909 E1.2928
G1 X-10.650 Y18.358 E1.4079
G1 X-10.669 Y18.346 E1.4101
G1 X-10.741 Y18.305 E1.4184
G1 X-10.761 Y18.293 E1.4207
G1 X-11.739 Y17.681 E1.5358
G1 X-11.758 Y17.669 E1.5380
G1 X-11.827 Y17.623 E1.5463
G1 X-11.845 Y17.610 E1.5486
G1 X-12.785 Y16.940 E1.6637
G1 X-12.803 Y16.927 E1.6660
G1 X-12.869 Y16.876 E1.6743
G1 X-12.887 Y16.862 E1.6765
G1 X-13.784 Y16.137 E1.7916
G1 X-13.802 Y16.123 E1.7939
G1 X-13.865 Y16.069 E1.8022
G1 X-13.882 Y16.054 E1.8044
G1 X-14.731 Y15.278 E1.9192
G1 X-14.748 Y15.262 E1.9215
G1 X-14.807 Y15.205 E1.9298
G1 X-14.823 Y15.189 E1.9320
G1 X-15.624 Y14.363 E2.0468
G1 X-15.640 Y14.347 E2.0491
G1 X-15.696 Y14.285 E2.0573
G1 X-15.711 Y14.269 E2.0596
G1 X-16.467 Y13.389 E2.1753
G1 X-16.481 Y13.371 E2.1776
G1 X-16.534 Y13.307 E2.1859
G1 X-16.548 Y13.289 E2.1882
G1 X-17.246 Y12.370 E2.3033
G1 X-17.259 Y12.351 E2.3056
G1 X-17.307 Y12.284 E2.3139
G1 X-17.320 Y12.265 E2.3162
G1 X-17.961 Y11.306 E2.4313
G1 X-17.973 Y11.287 E2.4335
G1 X-18.017 Y11.216 E2.4418
G1 X-18.029 Y11.197 E2.4441
G1 X-18.611 Y10.201 E2.5592
G1 X-18.622 Y10.181 E2.5615
G1 X-18.662 Y10.108 E2.5698
G1 X-18.672 Y10.088 E2.5720
G1 X-19.193 Y9.058 E2.6871
G1 X-19.203 Y9.038 E2.6894
G1 X-19.238 Y8.963 E2.6977
G1 X-19.247 Y8.942 E2.6999
G1 X-19.705 Y7.883 E2.8150
G1 X-19.713 Y7.862 E2.8173
G1 X-19.744 Y7.785 E2.8256
G1 X-19.752 Y7.764 E2.8278
G1 X-20.144 Y6.682 E2.9426
G1 X-20.151 Y6.661 E2.9449
G1 X-20.177 Y6.582 E2.9532
G1 X-20.184 Y6.560 E2.9554
G1 X-20.509 Y5.457 E3.0702
G1 X-20.515 Y5.435 E3.0724
G1 X-20.537 Y5.355 E3.0807
G1 X-20.542 Y5.333 E3.0830
G1 X-20.803 Y4.203 E3.1987
G1 X-20.808 Y4.180 E3.2010
G1 X-20.824 Y4.099 E3.2093
G1 X-20.828 Y4.076 E3.2116
G1 X-21.019 Y2.938 E3.3267
G1 X-21.022 Y2.916 E3.3290
G1 X-21.033 Y2.833 E3.3373
G1 X-21.036 Y2.811 E3.3396
G1 X-21.158 Y1.664 E3.4547
G1 X-21.160 Y1.641 E3.4569
G1 X-21.166 Y1.558 E3.4652
G1 X-21.167 Y1.536 E3.4675
G1 X-21.220 Y0.383 E3.5826
G1 X-21.220 Y0.361 E3.5848
G1 X-21.222 Y0.278 E3.5931
G1 X-21.222 Y0.255 E3.5954
G1 X-21.204 Y-0.899 E3.7105
G1 X-21.203 Y-0.921 E3.7128
G1 X-21.200 Y-1.004 E3.7211
G1 X-21.198 Y-1.027 E3.7233
G1 X-21.111 Y-2.177 E3.8384
G1 X-21.109 Y-2.200 E3.8407
G1 X-21.100 Y-2.282 E3.8490
G1 X-21.098 Y-2.305 E3.8512
G1 X-20.942 Y-3.444 E3.9660
G1 X-20.938 Y-3.467 E3.9683
G1 X-20.925 Y-3.548 E3.9765
G1 X-20.921 Y-3.571 E3.9788
G1 X-20.696 Y-4.699 E4.0936
G1 X-20.691 Y-4.721 E4.0958
G1 X-20.673 Y-4.802 E4.1041
G1 X-20.667 Y-4.824 E4.1064
G1 X-20.373 Y-5.946 E4.2221
G1 X-20.367 Y-5.968 E4.2244
G1 X-20.343 Y-6.048 E4.2327
G1 X-20.337 Y-6.070 E4.2350
G1 X-19.977 Y-7.166 E4.3501
G1 X-19.969 Y-7.188 E4.3524
G1 X-19.941 Y-7.266 E4.3607
G1 X-19.933 Y-7.287 E4.3629
G1 X-19.507 Y-8.359 E4.4781
G1 X-19.499 Y-8.380 E4.4803
G1 X-19.466 Y-8.457 E4.4886
G1 X-19.457 Y-8.477 E4.4909
G1 X-18.967 Y-9.522 E4.6060
G1 X-18.957 Y-9.542 E4.6083
G1 X-18.920 Y-9.617 E4.6166
G1 X-18.909 Y-9.636 E4.6188
G1 X-18.358 Y-10.650 E4.7339
G1 X-18.346 Y-10.669 E4.7362
G1 X-18.305 Y-10.741 E4.7445
G1 X-18.293 Y-10.761 E4.7467
G1 X-17.681 Y-11.739 E4.8618
G1 X-17.669 Y-11.758 E4.8641
G1 X-17.622 Y-11.827 E4.8724
G1 X-17.610 Y-11.846 E4.8747
G1 X-16.938 Y-12.788 E4.9901
G1 X-16.925 Y-12.806 E4.9924
G1 X-16.875 Y-12.872 E5.0006
G1 X-16.861 Y-12.890 E5.0029
G1 X-16.141 Y-13.779 E5.1170
G1 X-16.127 Y-13.797 E5.1193
G1 X-16.073 Y-13.859 E5.1275
G1 X-16.058 Y-13.876 E5.1298
G1 X-15.276 Y-14.733 E5.2455
G1 X-15.261 Y-14.750 E5.2478
G1 X-15.202 Y-14.809 E5.2561
G1 X-15.186 Y-14.826 E5.2584
G1 X-14.358 Y-15.629 E5.3735
G1 X-14.342 Y-15.644 E5.3758
G1 X-14.280 Y-15.700 E5.3841
G1 X-14.263 Y-15.716 E5.3863
G1 X-13.388 Y-16.467 E5.5015
G1 X-13.371 Y-16.482 E5.5037
G1 X-13.306 Y-16.534 E5.5120
G1 X-13.288 Y-16.548 E5.5143
G1 X-12.370 Y-17.246 E5.6294
G1 X-12.351 Y-17.259 E5.6316
G1 X-12.284 Y-17.307 E5.6399
G1 X-12.265 Y-17.320 E5.6422
G1 X-11.306 Y-17.961 E5.7573
G1 X-11.287 Y-17.973 E5.7596
G1 X-11.216 Y-18.017 E5.7678
G1 X-11.197 Y-18.029 E5.7701
G1 X-10.201 Y-18.611 E5.8852
G1 X-10.181 Y-18.622 E5.8875
G1 X-10.108 Y-18.662 E5.8957
G1 X-10.088 Y-18.672 E5.8980
G1 X-9.061 Y-19.191 E6.0128
G1 X-9.041 Y-19.201 E6.0151
G1 X-8.966 Y-19.236 E6.0233
G1 X-8.945 Y-19.246 E6.0256
G1 X-7.889 Y-19.702 E6.1404
G1 X-7.869 Y-19.711 E6.1426
G1 X-7.792 Y-19.741 E6.1509
G1 X-7.770 Y-19.749 E6.1532
G1 X-6.680 Y-20.145 E6.2689
G1 X-6.658 Y-20.152 E6.2712
G1 X-6.579 Y-20.178 E6.2795
G1 X-6.557 Y-20.185 E6.2818
G1 X-5.450 Y-20.511 E6.3969
G1 X-5.429 Y-20.517 E6.3992
G1 X-5.348 Y-20.538 E6.4075
G1 X-5.326 Y-20.544 E6.4097
G1 X-4.202 Y-20.803 E6.5248
G1 X-4.180 Y-20.808 E6.5271
G1 X-4.098 Y-20.824 E6.5354
G1 X-4.076 Y-20.828 E6.5377
G1 X-2.938 Y-21.019 E6.6528
G1 X-2.916 Y-21.022 E6.6550
G1 X-2.833 Y-21.033 E6.6633
G1 X-2.811 Y-21.036 E6.6656
G1 X-1.664 Y-21.158 E6.7807
G1 X-1.641 Y-21.160 E6.7830
G1 X-1.558 Y-21.166 E6.7913
G1 X-1.536 Y-21.167 E6.7935
G1 X-0.383 Y-21.220 E6.9086
G1 X-0.361 Y-21.220 E6.9109
G1 X-0.278 Y-21.222 E6.9191
G1 X-0.255 Y-21.222 E6.9214
G1 X0.895 Y-21.204 E7.0362
G1 X0.918 Y-21.204 E7.0385
G1 X1.001 Y-21.200 E7.0468
G1 X1.023 Y-21.198 E7.0490
G1 X2.170 Y-21.112 E7.1638
G1 X2.193 Y-21.110 E7.1660
G1 X2.275 Y-21.101 E7.1743
G1 X2.298 Y-21.098 E7.1766
G1 X3.447 Y-20.941 E7.2923
G1 X3.470 Y-20.938 E7.2946
G1 X3.552 Y-20.924 E7.3029
G1 X3.574 Y-20.920 E7.3052
G1 X4.706 Y-20.695 E7.4203
G1 X4.728 Y-20.690 E7.4226
G1 X4.809 Y-20.671 E7.4309
G1 X4.831 Y-20.666 E7.4331
G1 X5.947 Y-20.373 E7.5482
G1 X5.969 Y-20.367 E7.5505
G1 X6.049 Y-20.343 E7.5588
G1 X6.070 Y-20.337 E7.5611
G1 X7.166 Y-19.977 E7.6762
G1 X7.188 Y-19.969 E7.6784
G1 X7.266 Y-19.941 E7.6867
G1 X7.287 Y-19.933 E7.6890
G1 X8.359 Y-19.507 E7.8041
G1 X8.380 Y-19.499 E7.8064
G1 X8.457 Y-19.466 E7.8147
G1 X8.477 Y-19.457 E7.8169
G1 X9.522 Y-18.967 E7.9320
G1 X9.542 Y-18.957 E7.9343
G1 X9.616 Y-18.920 E7.9426
G1 X9.636 Y-18.909 E7.9448
G1 X10.647 Y-18.359 E8.0596
G1 X10.666 Y-18.348 E8.0619
G1 X10.738 Y-18.306 E8.0701
G1 X10.757 Y-18.295 E8.0724
G1 X11.733 Y-17.685 E8.1872
G1 X11.752 Y-17.673 E8.1894
G1 X11.821 Y-17.627 E8.1977
G1 X11.839 Y-17.614 E8.2000
G1 X12.784 Y-16.941 E8.3157
G1 X12.802 Y-16.927 E8.3180
G1 X12.869 Y-16.877 E8.3263
G1 X12.887 Y-16.863 E8.3286
G1 X13.784 Y-16.137 E8.4437
G1 X13.802 Y-16.123 E8.4460
G1 X13.865 Y-16.069 E8.4543
G1 X13.882 Y-16.054 E8.4565
G1 X14.734 Y-15.276 E8.5716
G1 X14.750 Y-15.260 E8.5739
G1 X14.810 Y-15.202 E8.5822
G1 X14.826 Y-15.186 E8.5845
G1 X15.629 Y-14.358 E8.6996
G1 X15.644 Y-14.342 E8.7018
G1 X15.700 Y-14.280 E8.7101
G1 X15.716 Y-14.263 E8.7124
G1 X16.467 Y-13.388 E8.8275
G1 X16.482 Y-13.371 E8.8297
G1 X16.534 Y-13.306 E8.8380
G1 X16.548 Y-13.288 E8.8403
G1 X17.246 Y-12.370 E8.9554
G1 X17.259 Y-12.351 E8.9577
G1 X17.307 Y-12.284 E8.9659
G1 X17.320 Y-12.265 E8.9682
G1 X17.959 Y-11.309 E9.0830
G1 X17.971 Y-11.290 E9.0852
G1 X18.015 Y-11.220 E9.0935
G1 X18.027 Y-11.200 E9.0958
G1 X18.608 Y-10.207 E9.2106
G1 X18.619 Y-10.187 E9.2128
G1 X18.658 Y-10.114 E9.2211
G1 X18.669 Y-10.094 E9.2234
G1 X19.193 Y-9.059 E9.3391
G1 X19.203 Y-9.038 E9.3414
G1 X19.238 Y-8.963 E9.3497
G1 X19.247 Y-8.942 E9.3520
G1 X19.705 Y-7.883 E9.4671
G1 X19.713 Y-7.862 E9.4694
G1 X19.744 Y-7.785 E9.4777
G1 X19.752 Y-7.764 E9.4799
G1 X20.145 Y-6.679 E9.5950
G1 X20.152 Y-6.658 E9.5973
G1 X20.178 Y-6.579 E9.6056
G1 X20.185 Y-6.557 E9.6078
G1 X20.511 Y-5.450 E9.7230
G1 X20.517 Y-5.428 E9.7252
G1 X20.538 Y-5.348 E9.7335
G1 X20.544 Y-5.326 E9.7358
G1 X20.803 Y-4.202 E9.8509
G1 X20.808 Y-4.180 E9.8532
G1 X20.824 Y-4.098 E9.8614
G1 X20.828 Y-4.076 E9.8637
G1 X21.019 Y-2.938 E9.9788
G1 X21.022 Y-2.916 E9.9810
G1 X21.033 Y-2.834 E9.9893
G1 X21.036 Y-2.811 E9.9916
G1 X21.157 Y-1.667 E10.1064
G1 X21.160 Y-1.645 E10.1087
G1 X21.166 Y-1.562 E10.1169
G1 X21.167 Y-1.539 E10.1192
G1 X21.219 Y-0.390 E10.2340
G1 X21.220 Y-0.368 E10.2362
G1 X21.221 Y-0.285 E10.2445
G1 X21.221 Y-0.262 E10.2468
G1 X21.204 Y0.898 E10.3625
G1 X21.203 Y0.921 E10.3648
G1 X21.200 Y1.004 E10.3731
G1 X21.198 Y1.027 E10.3754
G1 X21.111 Y2.177 E10.4905
G1 X21.109 Y2.200 E10.4928
G1 X21.100 Y2.282 E10.5011
G1 X21.098 Y2.305 E10.5033
G1 X20.941 Y3.448 E10.6184
G1 X20.938 Y3.471 E10.6207
G1 X20.924 Y3.553 E10.6290
G1 X20.920 Y3.575 E10.6313
G1 X20.695 Y4.706 E10.7464
G1 X20.690 Y4.728 E10.7486
G1 X20.671 Y4.809 E10.7569
G1 X20.666 Y4.831 E10.7592
G1 X20.373 Y5.947 E10.8743
G1 X20.367 Y5.969 E10.8766
G1 X20.343 Y6.049 E10.8848
G1 X20.337 Y6.070 E10.8871
G1 X19.977 Y7.166 E11.0022
G1 X19.969 Y7.187 E11.0045
G1 X19.941 Y7.266 E11.0127
G1 X19.933 Y7.287 E11.0150
G1 X19.509 Y8.356 E11.1298
G1 X19.500 Y8.377 E11.1320
G1 X19.467 Y8.453 E11.1403
G1 X19.458 Y8.474 E11.1426
G1 X18.970 Y9.515 E11.2574
G1 X18.960 Y9.536 E11.2596
G1 X18.923 Y9.610 E11.2679
G1 X18.912 Y9.630 E11.2701
G1 X18.358 Y10.649 E11.3859
G1 X18.347 Y10.669 E11.3882
G1 X18.305 Y10.741 E11.3965
G1 X18.293 Y10.760 E11.3988
G1 X17.681 Y11.739 E11.5139
G1 X17.669 Y11.758 E11.5162
G1 X17.623 Y11.827 E11.5245
G1 X17.610 Y11.845 E11.5267
G1 X16.940 Y12.785 E11.6418
G1 X16.927 Y12.803 E11.6441
G1 X16.877 Y12.869 E11.6524
G1 X16.863 Y12.887 E11.6546
G1 X16.137 Y13.784 E11.7698
G1 X16.123 Y13.802 E11.7720
G1 X16.069 Y13.865 E11.7803
G1 X16.054 Y13.882 E11.7826
G1 X15.276 Y14.733 E11.8977
G1 X15.260 Y14.750 E11.8999
G1 X15.202 Y14.810 E11.9082
G1 X15.186 Y14.826 E11.9105
G1 X14.358 Y15.629 E12.0256
G1 X14.342 Y15.644 E12.0279
G1 X14.280 Y15.700 E12.0361
G1 X14.263 Y15.715 E12.0384
G1 X13.391 Y16.465 E12.1532
G1 X13.374 Y16.480 E12.1555
G1 X13.309 Y16.532 E12.1637
G1 X13.291 Y16.546 E12.1660
G1 X12.375 Y17.242 E12.2808
G1 X12.357 Y17.255 E12.2830
G1 X12.289 Y17.303 E12.2913
G1 X12.271 Y17.316 E12.2935
