; G-Code generated by Simplify3D(R) Version 3.1.0
; Oct 11, 2016 at 9:35:20 AM
; Settings Summary
;   processName,Process2
;   applyToModels,penholder_v2
;   profileName,SeeMeCNC Orion
;   profileVersion,2016-09-25 17:24:38
;   baseProfile,
;   printMaterial,PLA
;   printQuality,Medium
;   printExtruders,
;   extruderName,Primary Extruder
;   extruderToolheadNumber,0
;   extruderDiameter,0.5
;   extruderAutoWidth,1
;   extruderWidth,0.6
;   extrusionMultiplier,1
;   extruderUseRetract,1
;   extruderRetractionDistance,8.4
;   extruderExtraRestartDistance,0
;   extruderRetractionZLift,0.1
;   extruderRetractionSpeed,3600
;   extruderUseCoasting,0
;   extruderCoastingDistance,1
;   extruderUseWipe,0
;   extruderWipeDistance,5
;   primaryExtruder,0
;   layerHeight,0.25
;   topSolidLayers,3
;   bottomSolidLayers,3
;   perimeterOutlines,3
;   printPerimetersInsideOut,1
;   startPointOption,2
;   startPointOriginX,0
;   startPointOriginY,0
;   startPointOriginZ,300
;   sequentialIslands,0
;   spiralVaseMode,0
;   firstLayerHeightPercentage,100
;   firstLayerWidthPercentage,200
;   firstLayerUnderspeed,0.3
;   useRaft,0
;   raftExtruder,0
;   raftLayers,3
;   raftOffset,3
;   raftSeparationDistance,0.14
;   raftInfill,85
;   disableRaftBaseLayers,0
;   useSkirt,1
;   skirtExtruder,0
;   skirtLayers,1
;   skirtOutlines,3
;   skirtOffset,2
;   usePrimePillar,0
;   primePillarExtruder,999
;   primePillarWidth,12
;   primePillarLocation,7
;   primePillarSpeedMultiplier,1
;   useOozeShield,0
;   oozeShieldExtruder,999
;   oozeShieldOffset,2
;   oozeShieldOutlines,1
;   oozeShieldSidewallShape,1
;   oozeShieldSidewallAngle,30
;   oozeShieldSpeedMultiplier,1
;   infillExtruder,0
;   internalInfillPattern,Fast Honeycomb
;   externalInfillPattern,Rectilinear
;   infillPercentage,15
;   outlineOverlapPercentage,15
;   infillExtrusionWidthPercentage,150
;   minInfillLength,5
;   infillLayerInterval,1
;   infillAngles,0
;   overlapInfillAngles,0
;   generateSupport,1
;   supportExtruder,0
;   supportInfillPercentage,25
;   supportExtraInflation,0
;   denseSupportLayers,0
;   denseSupportInfillPercentage,70
;   supportLayerInterval,1
;   supportHorizontalPartOffset,1
;   supportUpperSeparationLayers,1
;   supportLowerSeparationLayers,1
;   supportType,0
;   supportGridSpacing,4
;   maxOverhangAngle,45
;   supportAngles,45
;   temperatureName,Primary Extruder,Heated Bed
;   temperatureNumber,0,1
;   temperatureSetpointCount,2,1
;   temperatureSetpointLayers,1,2,1
;   temperatureSetpointTemperatures,215,200,60
;   temperatureStabilizeAtStartup,1,1
;   temperatureHeatedBed,0,1
;   temperatureRelayBetweenLayers,0,0
;   temperatureRelayBetweenLoops,0,0
;   fanLayers,1,2
;   fanSpeeds,0,100
;   blipFanToFullPower,1
;   adjustSpeedForCooling,1
;   minSpeedLayerTime,15
;   minCoolingSpeedSlowdown,20
;   increaseFanForCooling,0
;   minFanLayerTime,60
;   maxCoolingFanSpeed,100
;   increaseFanForBridging,0
;   bridgingFanSpeed,100
;   use5D,1
;   relativeEdistances,0
;   allowEaxisZeroing,1
;   independentExtruderAxes,0
;   includeM10123,0
;   stickySupport,1
;   applyToolheadOffsets,0
;   gcodeXoffset,0
;   gcodeYoffset,0
;   gcodeZoffset,0
;   overrideMachineDefinition,1
;   machineTypeOverride,1
;   strokeXoverride,108
;   strokeYoverride,108
;   strokeZoverride,241
;   originOffsetXoverride,54
;   originOffsetYoverride,54
;   originOffsetZoverride,0
;   homeXdirOverride,0
;   homeYdirOverride,0
;   homeZdirOverride,1
;   flipXoverride,1
;   flipYoverride,-1
;   flipZoverride,1
;   toolheadOffsets,0,0|0,0|0,0|0,0|0,0|0,0
;   overrideFirmwareConfiguration,1
;   firmwareTypeOverride,RepRap (Marlin/Repetier/Sprinter)
;   GPXconfigOverride,r2
;   baudRateOverride,250000
;   overridePrinterModels,1
;   printerModelsOverride
;   startingGcode,G28 ; home all axes
;   layerChangeGcode,
;   retractionGcode,
;   toolChangeGcode,
;   endingGcode,M104 S0 ; turn off extruder,M140 S0 ; turn off bed,G28 ; home axes,M84 ; disable motors
;   exportFileFormat,gcode
;   celebration,0
;   celebrationSong,Random Song
;   postProcessing,
;   defaultSpeed,4800
;   outlineUnderspeed,0.5
;   solidInfillUnderspeed,0.8
;   supportUnderspeed,0.8
;   rapidXYspeed,9000
;   rapidZspeed,1200
;   minBridgingArea,50
;   bridgingExtraInflation,0
;   bridgingExtrusionMultiplier,0.95
;   bridgingSpeedMultiplier,0.7
;   filamentDiameter,1.75
;   filamentPricePerKg,46
;   filamentDensity,1.25
;   useMinPrintHeight,0
;   minPrintHeight,0
;   useMaxPrintHeight,0
;   maxPrintHeight,0
;   useDiaphragm,0
;   diaphragmLayerInterval,20
;   robustSlicing,1
;   mergeAllIntoSolid,0
;   onlyRetractWhenCrossingOutline,1
;   retractBetweenLayers,1
;   useRetractionMinTravel,0
;   retractionMinTravel,3
;   retractWhileWiping,1
;   onlyWipeOutlines,1
;   avoidCrossingOutline,0
;   maxMovementDetourFactor,3
;   toolChangeRetractionDistance,12
;   toolChangeExtraRestartDistance,-0.5
;   toolChangeRetractionSpeed,600
;   allowThinWallGapFill,1
;   thinWallAllowedOverlapPercentage,10
;   horizontalSizeCompensation,0
G90
M82
M106 S0
M140 S60
M190 S60
M104 S215 T0
M109 S215 T0
G28 ; home all axes
G92 E0
G1 E-8.4000 F3600
G1 Z0.350 F1200
; layer 1, Z = 0.25
T0
; tool H0.250 W1.200
; skirt
G1 X4.174 Y-9.565 F9000
G1 Z0.250 F1200
G1 E0.0000 F1080
G92 E0
G1 X4.758 Y-9.413 E0.0753 F1440
G1 X5.386 Y-9.312 E0.1546
G1 X6.028 Y-9.273 E0.2348
G1 X6.607 Y-9.293 E0.3071
G1 X7.304 Y-9.385 E0.3948
G1 X7.870 Y-9.518 E0.4673
G1 X8.444 Y-9.711 E0.5427
G1 X10.770 Y-10.815 E0.8639
G1 X11.355 Y-10.849 E0.9370
G1 X13.447 Y-10.136 E1.2126
G1 X13.889 Y-9.753 E1.2856
G1 X17.163 Y-3.329 E2.1849
G1 X17.213 Y-2.745 E2.2580
G1 X16.559 Y-0.634 E2.5336
G1 X16.188 Y-0.181 E2.6067
G1 X13.928 Y1.052 E2.9278
G1 X13.434 Y1.402 E3.0033
G1 X12.995 Y1.783 E3.0758
G1 X12.510 Y2.292 E3.1635
G1 X12.154 Y2.749 E3.2357
G1 X11.808 Y3.291 E3.3159
G1 X11.520 Y3.859 E3.3953
G1 X11.301 Y4.418 E3.4703
G1 X11.121 Y5.053 E3.5525
G1 X11.010 Y5.669 E3.6306
G1 X10.966 Y6.134 E3.6889
G1 X10.956 Y6.642 E3.7522
G1 X10.984 Y7.122 E3.8121
G1 X11.050 Y7.616 E3.8744
G1 X11.153 Y8.100 E3.9361
G1 X11.291 Y8.571 E3.9974
G1 X11.463 Y9.025 E4.0579
G1 X11.690 Y9.515 E4.1252
G1 X18.379 Y22.643 E5.9629
G1 X18.397 Y22.680 E5.9680
G1 X18.457 Y22.818 E5.9868
G1 X18.473 Y22.856 E5.9919
G1 X18.706 Y23.472 E6.0740
G1 X18.731 Y23.549 E6.0842
G1 X18.806 Y23.839 E6.1216
G1 X18.822 Y23.919 E6.1318
G1 X18.928 Y24.651 E6.2240
G1 X18.936 Y24.733 E6.2342
G1 X18.946 Y25.035 E6.2720
G1 X18.944 Y25.118 E6.2822
G1 X18.888 Y25.856 E6.3746
G1 X18.878 Y25.938 E6.3849
G1 X18.822 Y26.235 E6.4226
G1 X18.802 Y26.315 E6.4329
G1 X18.587 Y27.024 E6.5252
G1 X18.559 Y27.101 E6.5355
G1 X18.440 Y27.379 E6.5732
G1 X18.403 Y27.453 E6.5835
G1 X18.038 Y28.097 E6.6759
G1 X17.994 Y28.167 E6.6862
G1 X17.817 Y28.412 E6.7239
G1 X17.765 Y28.476 E6.7341
G1 X17.269 Y29.026 E6.8265
G1 X17.210 Y29.084 E6.8368
G1 X16.985 Y29.284 E6.8745
G1 X16.920 Y29.336 E6.8848
G1 X16.316 Y29.764 E6.9771
G1 X16.246 Y29.808 E6.9874
G1 X15.982 Y29.955 E7.0251
G1 X15.908 Y29.991 E7.0354
G1 X15.225 Y30.277 E7.1278
G1 X15.147 Y30.305 E7.1381
G1 X14.857 Y30.390 E7.1758
G1 X14.777 Y30.409 E7.1860
G1 X14.048 Y30.540 E7.2784
G1 X13.966 Y30.550 E7.2887
G1 X13.665 Y30.570 E7.3264
G1 X13.582 Y30.572 E7.3367
G1 X12.842 Y30.540 E7.4290
G1 X12.760 Y30.532 E7.4393
G1 X12.461 Y30.486 E7.4770
G1 X12.381 Y30.469 E7.4873
G1 X11.665 Y30.278 E7.5797
G1 X11.587 Y30.252 E7.5900
G1 X11.305 Y30.142 E7.6277
G1 X11.230 Y30.108 E7.6379
G1 X10.574 Y29.765 E7.7303
G1 X10.503 Y29.723 E7.7406
G1 X10.252 Y29.554 E7.7783
G1 X10.186 Y29.505 E7.7886
G1 X9.678 Y29.075 E7.8716
G1 X9.646 Y29.047 E7.8769
G1 X9.535 Y28.942 E7.8959
G1 X9.506 Y28.913 E7.9011
G1 X-22.156 Y-4.513 E13.6436
G1 X-22.181 Y-4.540 E13.6482
G1 X-22.268 Y-4.642 E13.6649
G1 X-22.291 Y-4.670 E13.6694
G1 X-22.652 Y-5.135 E13.7428
G1 X-22.694 Y-5.194 E13.7519
G1 X-22.837 Y-5.421 E13.7853
G1 X-22.873 Y-5.484 E13.7944
G1 X-23.170 Y-6.074 E13.8767
G1 X-23.200 Y-6.141 E13.8859
G1 X-23.297 Y-6.392 E13.9195
G1 X-23.320 Y-6.462 E13.9287
G1 X-23.404 Y-6.766 E13.9680
G1 X-24.000 Y-7.097 E14.0530
G1 X-24.070 Y-7.142 E14.0634
G1 X-24.320 Y-7.320 E14.1017
G1 X-24.386 Y-7.372 E14.1121
G1 X-24.946 Y-7.874 E14.2059
G1 X-25.005 Y-7.933 E14.2163
G1 X-25.209 Y-8.162 E14.2546
G1 X-25.261 Y-8.227 E14.2650
G1 X-25.671 Y-8.804 E14.3533
G1 X-25.704 Y-8.854 E14.3607
G1 X-25.816 Y-9.042 E14.3880
G1 X-25.844 Y-9.094 E14.3954
G1 X-26.376 Y-10.173 E14.5455
G1 X-26.391 Y-10.205 E14.5499
G1 X-26.443 Y-10.323 E14.5659
G1 X-26.456 Y-10.355 E14.5703
G1 X-26.872 Y-11.445 E14.7158
G1 X-26.884 Y-11.478 E14.7202
G1 X-26.925 Y-11.602 E14.7364
G1 X-26.935 Y-11.635 E14.7408
G1 X-27.247 Y-12.760 E14.8864
G1 X-27.256 Y-12.795 E14.8908
G1 X-27.284 Y-12.921 E14.9070
G1 X-27.291 Y-12.956 E14.9114
G1 X-27.496 Y-14.105 E15.0570
G1 X-27.501 Y-14.140 E15.0614
G1 X-27.518 Y-14.268 E15.0776
G1 X-27.522 Y-14.304 E15.0820
G1 X-27.617 Y-15.467 E15.2276
G1 X-27.619 Y-15.502 E15.2320
G1 X-27.624 Y-15.632 E15.2482
G1 X-27.624 Y-15.667 E15.2526
G1 X-27.609 Y-16.834 E15.3981
G1 X-27.608 Y-16.870 E15.4026
G1 X-27.600 Y-16.999 E15.4187
G1 X-27.598 Y-17.034 E15.4232
G1 X-27.473 Y-18.195 E15.5687
G1 X-27.468 Y-18.230 E15.5731
G1 X-27.449 Y-18.358 E15.5893
G1 X-27.442 Y-18.393 E15.5937
G1 X-27.209 Y-19.537 E15.7393
G1 X-27.201 Y-19.571 E15.7437
G1 X-27.169 Y-19.697 E15.7599
G1 X-27.160 Y-19.731 E15.7643
G1 X-26.820 Y-20.848 E15.9099
G1 X-26.809 Y-20.881 E15.9143
G1 X-26.765 Y-21.003 E15.9305
G1 X-26.752 Y-21.036 E15.9349
G1 X-26.309 Y-22.116 E16.0805
G1 X-26.295 Y-22.148 E16.0849
G1 X-26.240 Y-22.266 E16.1011
G1 X-26.224 Y-22.298 E16.1055
G1 X-25.680 Y-23.331 E16.2511
G1 X-25.663 Y-23.362 E16.2555
G1 X-25.598 Y-23.473 E16.2717
G1 X-25.579 Y-23.503 E16.2761
G1 X-24.941 Y-24.481 E16.4216
G1 X-24.921 Y-24.510 E16.4261
G1 X-24.845 Y-24.615 E16.4423
G1 X-24.823 Y-24.643 E16.4467
G1 X-24.096 Y-25.556 E16.5922
G1 X-24.073 Y-25.583 E16.5967
G1 X-23.987 Y-25.681 E16.6128
G1 X-23.963 Y-25.707 E16.6172
G1 X-23.147 Y-26.553 E16.7640
G1 X-23.122 Y-26.578 E16.7684
G1 X-23.026 Y-26.668 E16.7847
G1 X-23.000 Y-26.692 E16.7892
G1 X-22.120 Y-27.446 E16.9337
G1 X-22.093 Y-27.468 E16.9381
G1 X-21.991 Y-27.547 E16.9541
G1 X-21.963 Y-27.568 E16.9585
G1 X-21.010 Y-28.241 E17.1040
G1 X-20.981 Y-28.261 E17.1084
G1 X-20.871 Y-28.330 E17.1246
G1 X-20.841 Y-28.349 E17.1290
G1 X-19.828 Y-28.929 E17.2746
G1 X-19.797 Y-28.946 E17.2790
G1 X-19.682 Y-29.005 E17.2952
G1 X-19.650 Y-29.020 E17.2996
G1 X-18.587 Y-29.503 E17.4452
G1 X-18.555 Y-29.517 E17.4496
G1 X-18.434 Y-29.565 E17.4658
G1 X-18.401 Y-29.577 E17.4702
G1 X-17.297 Y-29.957 E17.6157
G1 X-17.264 Y-29.968 E17.6201
G1 X-17.139 Y-30.004 E17.6363
G1 X-17.105 Y-30.013 E17.6407
G1 X-15.970 Y-30.288 E17.7863
G1 X-15.936 Y-30.295 E17.7907
G1 X-15.808 Y-30.320 E17.8069
G1 X-15.774 Y-30.326 E17.8113
G1 X-14.618 Y-30.492 E17.9569
G1 X-14.583 Y-30.496 E17.9613
G1 X-14.454 Y-30.509 E17.9775
G1 X-14.419 Y-30.511 E17.9819
G1 X-13.253 Y-30.568 E18.1275
G1 X-13.218 Y-30.569 E18.1319
G1 X-13.088 Y-30.569 E18.1481
G1 X-13.052 Y-30.568 E18.1525
G1 X-11.887 Y-30.515 E18.2981
G1 X-11.851 Y-30.513 E18.3025
G1 X-11.722 Y-30.501 E18.3187
G1 X-11.687 Y-30.497 E18.3231
G1 X-10.531 Y-30.334 E18.4686
G1 X-10.496 Y-30.328 E18.4730
G1 X-10.369 Y-30.304 E18.4892
G1 X-10.335 Y-30.297 E18.4936
G1 X-9.202 Y-30.026 E18.6388
G1 X-9.168 Y-30.017 E18.6432
G1 X-9.044 Y-29.982 E18.6594
G1 X-9.010 Y-29.971 E18.6638
G1 X-7.909 Y-29.596 E18.8088
G1 X-7.876 Y-29.584 E18.8132
G1 X-7.756 Y-29.536 E18.8293
G1 X-7.723 Y-29.523 E18.8337
G1 X-6.658 Y-29.044 E18.9795
G1 X-6.626 Y-29.029 E18.9839
G1 X-6.510 Y-28.970 E19.0001
G1 X-6.479 Y-28.953 E19.0045
G1 X-5.466 Y-28.378 E19.1497
G1 X-5.436 Y-28.359 E19.1542
G1 X-5.325 Y-28.290 E19.1705
G1 X-5.296 Y-28.270 E19.1749
G1 X-4.321 Y-27.586 E19.3234
G1 X-4.293 Y-27.565 E19.3278
G1 X-4.190 Y-27.485 E19.3441
G1 X-4.162 Y-27.463 E19.3485
G1 X-3.287 Y-26.716 E19.4919
G1 X-3.261 Y-26.693 E19.4963
G1 X-3.168 Y-26.605 E19.5123
G1 X-3.143 Y-26.581 E19.5166
G1 X-2.343 Y-25.757 E19.6598
G1 X-2.319 Y-25.731 E19.6642
G1 X-2.233 Y-25.634 E19.6805
G1 X-2.210 Y-25.607 E19.6849
G1 X-1.452 Y-24.662 E19.8360
G1 X-1.430 Y-24.634 E19.8404
G1 X-1.352 Y-24.527 E19.8569
G1 X-1.332 Y-24.498 E19.8613
G1 X-0.702 Y-23.537 E20.0047
G1 X-0.683 Y-23.506 E20.0092
G1 X-0.616 Y-23.392 E20.0256
G1 X-0.598 Y-23.361 E20.0301
G1 X-0.034 Y-22.290 E20.1811
G1 X-0.018 Y-22.258 E20.1855
G1 X0.037 Y-22.141 E20.2017
G1 X0.051 Y-22.109 E20.2061
G1 X0.487 Y-21.049 E20.3490
G1 X0.499 Y-21.017 E20.3533
G1 X0.543 Y-20.896 E20.3693
G1 X0.554 Y-20.863 E20.3736
G1 X0.890 Y-19.767 E20.5166
G1 X0.899 Y-19.733 E20.5210
G1 X0.931 Y-19.609 E20.5369
G1 X0.939 Y-19.575 E20.5413
G1 X1.172 Y-18.449 E20.6847
G1 X1.179 Y-18.415 E20.6891
G1 X1.199 Y-18.286 E20.7054
G1 X1.204 Y-18.250 E20.7099
G1 X1.335 Y-17.053 E20.8601
G1 X1.338 Y-17.017 E20.8646
G1 X1.346 Y-16.887 E20.8809
G1 X1.348 Y-16.851 E20.8854
G1 X1.364 Y-15.701 E21.0288
G1 X1.364 Y-15.666 E21.0332
G1 X1.360 Y-15.537 E21.0493
G1 X1.358 Y-15.502 E21.0537
G1 X1.265 Y-14.337 E21.1994
G1 X1.261 Y-14.302 E21.2038
G1 X1.245 Y-14.174 E21.2199
G1 X1.240 Y-14.139 E21.2243
G1 X1.041 Y-13.004 E21.3680
G1 X1.034 Y-12.969 E21.3724
G1 X1.006 Y-12.844 E21.3885
G1 X0.997 Y-12.810 E21.3929
G1 X0.786 Y-12.036 E21.4929
G1 X0.806 Y-12.005 E21.4975
G1 X1.105 Y-11.616 E21.5587
G1 X1.436 Y-11.248 E21.6204
G1 X1.794 Y-10.905 E21.6823
G1 X2.177 Y-10.591 E21.7441
G1 X2.584 Y-10.306 E21.8060
G1 X2.978 Y-10.072 E21.8631
G1 X3.578 Y-9.784 E21.9462
G1 X4.174 Y-9.565 E22.0254
G1 X3.995 Y-8.992 F9000
G92 E0
G1 X4.635 Y-8.825 E0.0824 F1440
G1 X5.320 Y-8.715 E0.1690
G1 X6.020 Y-8.672 E0.2565
G1 X6.657 Y-8.694 E0.3360
G1 X7.412 Y-8.794 E0.4310
G1 X8.035 Y-8.940 E0.5107
G1 X8.669 Y-9.154 E0.5942
G1 X10.921 Y-10.223 E0.9051
G1 X11.272 Y-10.243 E0.9490
G1 X13.142 Y-9.606 E1.1954
G1 X13.408 Y-9.376 E1.2392
G1 X16.575 Y-3.161 E2.1092
G1 X16.605 Y-2.811 E2.1531
G1 X16.021 Y-0.923 E2.3995
G1 X15.798 Y-0.651 E2.4433
G1 X13.609 Y0.542 E2.7543
G1 X13.064 Y0.930 E2.8377
G1 X12.580 Y1.348 E2.9175
G1 X12.055 Y1.900 E3.0125
G1 X11.663 Y2.402 E3.0920
G1 X11.286 Y2.994 E3.1794
G1 X10.972 Y3.613 E3.2661
G1 X10.732 Y4.227 E3.3482
G1 X10.536 Y4.917 E3.4377
G1 X10.415 Y5.587 E3.5226
G1 X10.366 Y6.100 E3.5870
G1 X10.356 Y6.654 E3.6560
G1 X10.387 Y7.179 E3.7216
G1 X10.459 Y7.719 E3.7896
G1 X10.571 Y8.247 E3.8569
G1 X10.722 Y8.762 E3.9238
G1 X10.909 Y9.258 E3.9900
G1 X11.150 Y9.778 E4.0614
G1 X17.841 Y22.908 E5.8995
G1 X17.851 Y22.930 E5.9025
G1 X17.905 Y23.053 E5.9192
G1 X17.915 Y23.076 E5.9223
G1 X18.139 Y23.669 E6.0014
G1 X18.154 Y23.715 E6.0075
G1 X18.221 Y23.974 E6.0408
G1 X18.231 Y24.022 E6.0469
G1 X18.332 Y24.721 E6.1350
G1 X18.336 Y24.770 E6.1412
G1 X18.346 Y25.039 E6.1748
G1 X18.345 Y25.089 E6.1810
G1 X18.291 Y25.795 E6.2692
G1 X18.285 Y25.844 E6.2754
G1 X18.235 Y26.108 E6.3090
G1 X18.224 Y26.156 E6.3151
G1 X18.018 Y26.833 E6.4034
G1 X18.001 Y26.880 E6.4096
G1 X17.895 Y27.127 E6.4432
G1 X17.873 Y27.172 E6.4493
G1 X17.524 Y27.788 E6.5376
G1 X17.498 Y27.829 E6.5438
G1 X17.340 Y28.048 E6.5774
G1 X17.309 Y28.086 E6.5835
G1 X16.835 Y28.611 E6.6718
G1 X16.800 Y28.646 E6.6780
G1 X16.598 Y28.825 E6.7115
G1 X16.560 Y28.856 E6.7177
G1 X15.982 Y29.265 E6.8060
G1 X15.940 Y29.291 E6.8121
G1 X15.705 Y29.422 E6.8457
G1 X15.660 Y29.444 E6.8519
G1 X15.008 Y29.717 E6.9402
G1 X14.961 Y29.734 E6.9463
G1 X14.703 Y29.810 E6.9799
G1 X14.655 Y29.822 E6.9861
G1 X13.958 Y29.947 E7.0744
G1 X13.909 Y29.953 E7.0805
G1 X13.640 Y29.971 E7.1141
G1 X13.591 Y29.971 E7.1203
G1 X12.884 Y29.941 E7.2086
G1 X12.835 Y29.937 E7.2147
G1 X12.569 Y29.896 E7.2483
G1 X12.520 Y29.886 E7.2545
G1 X11.837 Y29.702 E7.3428
G1 X11.790 Y29.687 E7.3489
G1 X11.539 Y29.589 E7.3825
G1 X11.494 Y29.569 E7.3887
G1 X10.866 Y29.241 E7.4769
G1 X10.824 Y29.216 E7.4831
G1 X10.600 Y29.065 E7.5167
G1 X10.561 Y29.036 E7.5229
G1 X10.071 Y28.622 E7.6028
G1 X10.052 Y28.605 E7.6060
G1 X9.953 Y28.512 E7.6230
G1 X9.936 Y28.494 E7.6261
G1 X-21.716 Y-4.920 E13.3666
G1 X-21.730 Y-4.937 E13.3693
G1 X-21.808 Y-5.027 E13.3842
