; G-Code generated by Simplify3D(R) Version 3.1.0
; Oct 11, 2016 at 6:51:09 PM
; Settings Summary
;   processName,Process2
;   applyToModels,title
;   profileName,Drawing Machine (modified)
;   profileVersion,2016-10-05 17:38:49
;   baseProfile,SeeMeCNC Orion
;   printMaterial,PLA
;   printQuality,Medium
;   printExtruders,
;   extruderName,Primary Extruder
;   extruderToolheadNumber,0
;   extruderDiameter,2
;   extruderAutoWidth,0
;   extruderWidth,0.8
;   extrusionMultiplier,1
;   extruderUseRetract,0
;   extruderRetractionDistance,8.4
;   extruderExtraRestartDistance,0
;   extruderRetractionZLift,0.1
;   extruderRetractionSpeed,3600
;   extruderUseCoasting,0
;   extruderCoastingDistance,1
;   extruderUseWipe,0
;   extruderWipeDistance,5
;   primaryExtruder,0
;   layerHeight,0.2
;   topSolidLayers,3
;   bottomSolidLayers,3
;   perimeterOutlines,1
;   printPerimetersInsideOut,1
;   startPointOption,2
;   startPointOriginX,0
;   startPointOriginY,0
;   startPointOriginZ,300
;   sequentialIslands,0
;   spiralVaseMode,0
;   firstLayerHeightPercentage,100
;   firstLayerWidthPercentage,200
;   firstLayerUnderspeed,0.3
;   useRaft,0
;   raftExtruder,0
;   raftLayers,3
;   raftOffset,3
;   raftSeparationDistance,0.14
;   raftInfill,85
;   disableRaftBaseLayers,0
;   useSkirt,0
;   skirtExtruder,0
;   skirtLayers,0
;   skirtOutlines,3
;   skirtOffset,2
;   usePrimePillar,0
;   primePillarExtruder,999
;   primePillarWidth,12
;   primePillarLocation,7
;   primePillarSpeedMultiplier,1
;   useOozeShield,0
;   oozeShieldExtruder,999
;   oozeShieldOffset,2
;   oozeShieldOutlines,1
;   oozeShieldSidewallShape,1
;   oozeShieldSidewallAngle,30
;   oozeShieldSpeedMultiplier,1
;   infillExtruder,0
;   internalInfillPattern,Fast Honeycomb
;   externalInfillPattern,Rectilinear
;   infillPercentage,0
;   outlineOverlapPercentage,15
;   infillExtrusionWidthPercentage,150
;   minInfillLength,5
;   infillLayerInterval,1
;   infillAngles,0
;   overlapInfillAngles,0
;   generateSupport,1
;   supportExtruder,0
;   supportInfillPercentage,25
;   supportExtraInflation,0
;   denseSupportLayers,0
;   denseSupportInfillPercentage,70
;   supportLayerInterval,1
;   supportHorizontalPartOffset,1
;   supportUpperSeparationLayers,1
;   supportLowerSeparationLayers,1
;   supportType,0
;   supportGridSpacing,4
;   maxOverhangAngle,45
;   supportAngles,45
;   temperatureName,Primary Extruder,Heated Bed
;   temperatureNumber,0,1
;   temperatureSetpointCount,2,1
;   temperatureSetpointLayers,1,2,1
;   temperatureSetpointTemperatures,215,205,60
;   temperatureStabilizeAtStartup,1,1
;   temperatureHeatedBed,0,1
;   temperatureRelayBetweenLayers,0,0
;   temperatureRelayBetweenLoops,0,0
;   fanLayers,1,2
;   fanSpeeds,0,100
;   blipFanToFullPower,1
;   adjustSpeedForCooling,1
;   minSpeedLayerTime,15
;   minCoolingSpeedSlowdown,20
;   increaseFanForCooling,0
;   minFanLayerTime,60
;   maxCoolingFanSpeed,100
;   increaseFanForBridging,0
;   bridgingFanSpeed,100
;   use5D,1
;   relativeEdistances,0
;   allowEaxisZeroing,1
;   independentExtruderAxes,0
;   includeM10123,0
;   stickySupport,1
;   applyToolheadOffsets,0
;   gcodeXoffset,0
;   gcodeYoffset,0
;   gcodeZoffset,0
;   overrideMachineDefinition,1
;   machineTypeOverride,1
;   strokeXoverride,100
;   strokeYoverride,100
;   strokeZoverride,1
;   originOffsetXoverride,50
;   originOffsetYoverride,50
;   originOffsetZoverride,0
;   homeXdirOverride,0
;   homeYdirOverride,0
;   homeZdirOverride,1
;   flipXoverride,1
;   flipYoverride,-1
;   flipZoverride,1
;   toolheadOffsets,0,0|0,0|0,0|0,0|0,0|0,0
;   overrideFirmwareConfiguration,1
;   firmwareTypeOverride,RepRap (Marlin/Repetier/Sprinter)
;   GPXconfigOverride,r2
;   baudRateOverride,115200
;   overridePrinterModels,1
;   printerModelsOverride
;   startingGcode,G28 ; home all axes
;   layerChangeGcode,
;   retractionGcode,
;   toolChangeGcode,
;   endingGcode,M104 S0 ; turn off extruder,M140 S0 ; turn off bed,G28 ; home axes,M84 ; disable motors
;   exportFileFormat,gcode
;   celebration,0
;   celebrationSong,Random Song
;   postProcessing,
;   defaultSpeed,3600
;   outlineUnderspeed,0.5
;   solidInfillUnderspeed,0.8
;   supportUnderspeed,0.8
;   rapidXYspeed,9000
;   rapidZspeed,1200
;   minBridgingArea,50
;   bridgingExtraInflation,0
;   bridgingExtrusionMultiplier,0.95
;   bridgingSpeedMultiplier,0.7
;   filamentDiameter,1.75
;   filamentPricePerKg,46
;   filamentDensity,1.25
;   useMinPrintHeight,1
;   minPrintHeight,0
;   useMaxPrintHeight,1
;   maxPrintHeight,0.2
;   useDiaphragm,0
;   diaphragmLayerInterval,20
;   robustSlicing,1
;   mergeAllIntoSolid,0
;   onlyRetractWhenCrossingOutline,0
;   retractBetweenLayers,0
;   useRetractionMinTravel,0
;   retractionMinTravel,3
;   retractWhileWiping,0
;   onlyWipeOutlines,0
;   avoidCrossingOutline,0
;   maxMovementDetourFactor,3
;   toolChangeRetractionDistance,12
;   toolChangeExtraRestartDistance,-0.5
;   toolChangeRetractionSpeed,600
;   allowThinWallGapFill,1
;   thinWallAllowedOverlapPercentage,10
;   horizontalSizeCompensation,0
G90
M82
M106 S0
M140 S60
M190 S60
M104 S215 T0
M109 S215 T0
G28 ; home all axes
G92 E0
G1 E-8.4000 F3600
G1 Z0.300 F1200
; layer 1, Z = 0.2
T0
; tool H0.200 W1.600
; outer perimeter
G1 X-2.363 Y-7.959 F9000
G1 Z0.200 F1200
G1 E0.0000 F1080
G92 E0
G1 X-2.424 Y-7.946 E0.0084 F540
G1 X-2.737 Y-7.946 E0.0499
G1 X-3.088 Y-8.168 E0.1052
G1 X-3.325 Y-8.168 E0.1367
G1 X-3.325 Y-8.410 E0.1689
G1 X-3.550 Y-8.763 E0.2247
G1 X-3.554 Y-11.067 E0.5311
G1 X-4.163 Y-11.874 E0.6656
G1 X-4.709 Y-11.726 E0.7409
G1 X-5.876 Y-11.726 E0.8962
G1 X-6.050 Y-11.773 E0.9202
G1 X-6.411 Y-11.773 E0.9682
G1 X-6.604 Y-11.961 E1.0040
G1 X-6.691 Y-12.354 E1.0576
G1 X-6.639 Y-12.944 E1.1363
G1 X-5.568 Y-13.112 E1.2806
G1 X-5.501 Y-13.336 E1.3117
G1 X-5.392 Y-13.397 E1.3283
G1 X-5.037 Y-13.397 E1.3754
G1 X-4.784 Y-13.526 E1.4133
G1 X-4.163 Y-13.526 E1.4959
G1 X-3.630 Y-14.018 E1.5924
G1 X-3.508 Y-14.475 E1.6553
G1 X-3.505 Y-17.221 E2.0206
G1 X-3.406 Y-17.393 E2.0470
G1 X-3.406 Y-22.784 E2.7643
G1 X-3.161 Y-22.854 E2.7982
G1 X-2.882 Y-23.421 E2.8823
G1 X-2.875 Y-23.469 E2.8887
G1 X-2.771 Y-23.488 E2.9028
G1 X-2.486 Y-23.488 E2.9407
G1 X-1.998 Y-23.112 E3.0226
G1 X-1.644 Y-22.637 E3.1015
G1 X-1.644 Y-22.247 E3.1534
G1 X-1.631 Y-22.109 E3.1717
G1 X-1.631 Y-15.593 E4.0387
G1 X-1.672 Y-15.472 E4.0557
G1 X-1.682 Y-14.401 E4.1982
G1 X-1.292 Y-13.597 E4.3170
G1 X-0.266 Y-13.183 E4.4642
G1 X0.768 Y-13.183 E4.6018
G1 X1.210 Y-13.147 E4.6608
G1 X1.843 Y-12.855 E4.7535
G1 X1.960 Y-12.737 E4.7757
G1 X1.960 Y-12.463 E4.8122
G1 X2.027 Y-12.293 E4.8364
G1 X1.701 Y-12.293 E4.8797
G1 X1.661 Y-12.150 E4.8996
G1 X1.569 Y-12.117 E4.9125
G1 X1.569 Y-11.822 E4.9518
G1 X1.549 Y-11.750 E4.9616
G1 X1.477 Y-11.750 E4.9713
G1 X1.349 Y-11.725 E4.9886
G1 X-1.370 Y-11.721 E5.3504
G1 X-1.680 Y-10.954 E5.4605
G1 X-1.680 Y-8.910 E5.7324
G1 X-1.771 Y-8.745 E5.7574
G1 X-1.968 Y-8.720 E5.7837
G1 X-2.359 Y-8.003 E5.8924
G1 X-2.363 Y-7.959 E5.8983
; outer perimeter
G1 X-9.227 Y-8.397 F9000
G92 E0
G1 X-9.216 Y-6.154 E0.2983 F540
G1 X-9.432 Y-6.041 E0.3307
G1 X-9.547 Y-6.041 E0.3460
G1 X-9.682 Y-5.691 E0.3959
G1 X-10.190 Y-5.697 E0.4635
G1 X-10.513 Y-5.994 E0.5219
G1 X-10.588 Y-6.142 E0.5440
G1 X-10.935 Y-6.552 E0.6154
G1 X-10.935 Y-6.879 E0.6589
G1 X-11.038 Y-7.159 E0.6987
G1 X-11.043 Y-9.202 E0.9705
G1 X-11.081 Y-9.376 E0.9941
G1 X-11.098 Y-11.854 E1.3239
G1 X-11.759 Y-12.621 E1.4586
G1 X-13.197 Y-12.135 E1.6605
G1 X-13.203 Y-11.949 E1.6853
G1 X-13.336 Y-11.782 E1.7137
G1 X-14.912 Y-11.777 E1.9234
G1 X-15.165 Y-11.853 E1.9584
G1 X-15.540 Y-11.853 E2.0084
G1 X-16.224 Y-12.308 E2.1176
G1 X-16.928 Y-12.449 E2.2131
G1 X-17.510 Y-12.948 E2.3151
G1 X-18.146 Y-13.543 E2.4311
G1 X-18.180 Y-13.564 E2.4363
G1 X-18.806 Y-14.281 E2.5629
G1 X-18.890 Y-14.440 E2.5868
G1 X-19.291 Y-14.887 E2.6668
G1 X-19.291 Y-15.290 E2.7204
G1 X-19.413 Y-15.569 E2.7609
G1 X-19.559 Y-16.418 E2.8755
G1 X-19.642 Y-16.501 E2.8911
G1 X-19.961 Y-17.062 E2.9769
G1 X-19.961 Y-17.367 E3.0175
G1 X-20.005 Y-17.666 E3.0577
G1 X-20.005 Y-18.774 E3.2052
G1 X-19.946 Y-19.029 E3.2399
G1 X-19.946 Y-19.098 E3.2491
G1 X-19.623 Y-19.098 E3.2921
G1 X-19.567 Y-19.445 E3.3388
G1 X-19.526 Y-19.476 E3.3457
G1 X-19.526 Y-19.700 E3.3755
G1 X-19.427 Y-20.319 E3.4590
G1 X-19.363 Y-20.482 E3.4822
G1 X-19.363 Y-20.714 E3.5130
G1 X-19.021 Y-20.856 E3.5623
G1 X-19.021 Y-20.861 E3.5629
G1 X-18.939 Y-20.861 E3.5739
G1 X-18.773 Y-21.472 E3.6582
G1 X-18.422 Y-21.634 E3.7096
G1 X-18.422 Y-21.773 E3.7281
G1 X-18.282 Y-21.773 E3.7467
G1 X-18.109 Y-22.153 E3.8023
G1 X-17.590 Y-22.330 E3.8752
G1 X-17.590 Y-22.451 E3.8914
G1 X-17.498 Y-22.451 E3.9037
G1 X-17.373 Y-22.769 E3.9491
G1 X-17.162 Y-22.779 E3.9772
G1 X-16.279 Y-23.025 E4.0992
G1 X-16.242 Y-23.243 E4.1287
G1 X-16.221 Y-23.243 E4.1314
G1 X-16.029 Y-23.422 E4.1665
G1 X-15.734 Y-23.422 E4.2056
G1 X-15.562 Y-23.443 E4.2287
G1 X-14.357 Y-23.443 E4.3890
G1 X-14.140 Y-23.398 E4.4185
G1 X-13.738 Y-23.398 E4.4719
G1 X-13.215 Y-23.091 E4.5526
G1 X-13.099 Y-23.091 E4.5680
G1 X-12.950 Y-22.941 E4.5962
G1 X-12.174 Y-22.736 E4.7030
G1 X-11.897 Y-22.695 E4.7402
G1 X-11.049 Y-22.723 E4.8531
G1 X-10.219 Y-23.161 E4.9780
G1 X-10.218 Y-23.175 E4.9797
G1 X-10.188 Y-23.164 E4.9840
G1 X-10.083 Y-23.164 E4.9980
G1 X-9.486 Y-22.570 E5.1099
G1 X-9.486 Y-22.500 E5.1193
G1 X-9.393 Y-22.088 E5.1754
G1 X-9.626 Y-21.884 E5.2167
G1 X-9.785 Y-21.557 E5.2651
G1 X-9.908 Y-19.906 E5.4852
G1 X-9.908 Y-13.782 E6.3000
G1 X-9.829 Y-13.040 E6.3993
G1 X-9.793 Y-12.257 E6.5035
G1 X-9.777 Y-12.200 E6.5115
G1 X-9.777 Y-11.306 E6.6304
G1 X-9.323 Y-10.571 E6.7454
G1 X-9.320 Y-8.674 E6.9976
G1 X-9.227 Y-8.397 E7.0366
; outer perimeter
G1 X-11.996 Y-13.807 F9000
G92 E0
G1 X-11.900 Y-14.662 E0.1145 F540
G1 X-11.554 Y-14.812 E0.1647
G1 X-11.554 Y-16.476 E0.3861
G1 X-11.596 Y-16.891 E0.4416
G1 X-11.596 Y-19.096 E0.7350
G1 X-11.295 Y-19.315 E0.7844
G1 X-11.159 Y-19.949 E0.8708
G1 X-11.351 Y-20.373 E0.9326
G1 X-11.783 Y-20.775 E1.0111
G1 X-12.255 Y-21.094 E1.0869
G1 X-12.494 Y-21.334 E1.1319
G1 X-13.180 Y-21.558 E1.2280
G1 X-13.805 Y-21.947 E1.3259
G1 X-14.180 Y-21.947 E1.3758
G1 X-14.854 Y-22.110 E1.4681
G1 X-15.512 Y-22.110 E1.5556
G1 X-15.745 Y-21.667 E1.6222
G1 X-16.131 Y-21.667 E1.6736
G1 X-16.293 Y-21.493 E1.7051
G1 X-17.237 Y-21.344 E1.8323
G1 X-17.364 Y-20.608 E1.9317
G1 X-17.829 Y-20.456 E1.9968
G1 X-17.829 Y-20.399 E2.0043
G1 X-17.917 Y-20.397 E2.0161
G1 X-18.158 Y-19.436 E2.1480
G1 X-18.218 Y-19.245 E2.1746
G1 X-18.221 Y-18.636 E2.2556
G1 X-18.269 Y-18.501 E2.2746
G1 X-18.269 Y-16.993 E2.4753
G1 X-18.251 Y-16.808 E2.5000
G1 X-18.243 Y-16.145 E2.5882
G1 X-18.014 Y-15.236 E2.7130
G1 X-17.692 Y-14.901 E2.7748
G1 X-17.525 Y-14.464 E2.8370
G1 X-17.171 Y-14.031 E2.9114
G1 X-16.990 Y-13.864 E2.9442
G1 X-16.687 Y-13.720 E2.9888
G1 X-16.059 Y-13.619 E3.0735
G1 X-15.526 Y-13.305 E3.1557
G1 X-15.109 Y-13.305 E3.2112
G1 X-14.513 Y-13.183 E3.2921
G1 X-13.907 Y-13.183 E3.3728
G1 X-13.631 Y-13.504 E3.4292
G1 X-13.132 Y-13.504 E3.4956
G1 X-12.978 Y-13.700 E3.5287
G1 X-11.996 Y-13.807 E3.6601
; outer perimeter
G1 X-23.500 Y-14.578 F9000
G92 E0
G1 X-23.500 Y-12.511 E0.2750 F540
G1 X-23.510 Y-12.452 E0.2830
G1 X-23.535 Y-12.450 E0.2863
G1 X-24.268 Y-12.092 E0.3948
G1 X-24.281 Y-12.012 E0.4055
G1 X-24.392 Y-12.050 E0.4211
G1 X-24.495 Y-12.050 E0.4349
G1 X-24.596 Y-12.150 E0.4539
G1 X-25.045 Y-12.513 E0.5307
G1 X-25.174 Y-12.642 E0.5549
G1 X-25.174 Y-12.843 E0.5817
G1 X-25.302 Y-13.205 E0.6328
G1 X-25.302 Y-15.219 E0.9007
G1 X-25.372 Y-15.459 E0.9340
G1 X-25.382 Y-16.100 E1.0193
G1 X-25.382 Y-22.287 E1.8424
G1 X-25.121 Y-22.437 E1.8825
G1 X-25.036 Y-22.437 E1.8938
G1 X-24.917 Y-22.741 E1.9372
G1 X-24.346 Y-22.742 E2.0131
G1 X-23.844 Y-22.355 E2.0975
G1 X-23.826 Y-22.355 E2.0999
G1 X-23.559 Y-21.920 E2.1678
G1 X-23.559 Y-15.421 E3.0324
G1 X-23.504 Y-15.225 E3.0594
G1 X-23.500 Y-14.578 E3.1455
; outer perimeter
G1 X-29.571 Y-14.919 F9000
G92 E0
G1 X-29.645 Y-14.744 E0.0253 F540
G1 X-29.645 Y-14.282 E0.0867
G1 X-29.718 Y-14.151 E0.1067
G1 X-29.988 Y-14.108 E0.1431
G1 X-30.235 Y-13.190 E0.2696
G1 X-30.245 Y-12.939 E0.3030
G1 X-30.506 Y-12.812 E0.3416
G1 X-30.506 Y-12.712 E0.3549
G1 X-30.640 Y-12.712 E0.3728
G1 X-30.783 Y-12.365 E0.4228
G1 X-31.351 Y-12.258 E0.4997
G1 X-31.397 Y-12.258 E0.5058
G1 X-31.401 Y-12.248 E0.5071
G1 X-31.561 Y-12.218 E0.5288
G1 X-31.561 Y-11.852 E0.5775
G1 X-31.590 Y-11.780 E0.5879
G1 X-31.793 Y-11.777 E0.6148
G1 X-32.907 Y-11.786 E0.7631
G1 X-33.337 Y-12.027 E0.8287
G1 X-33.569 Y-12.027 E0.8595
G1 X-33.849 Y-12.275 E0.9093
G1 X-34.231 Y-12.383 E0.9620
G1 X-34.830 Y-12.921 E1.0692
G1 X-35.128 Y-13.161 E1.1202
G1 X-36.080 Y-13.079 E1.2472
G1 X-36.194 Y-12.458 E1.3313
G1 X-36.319 Y-12.451 E1.3480
G1 X-36.648 Y-12.311 E1.3954
G1 X-37.059 Y-11.933 E1.4697
G1 X-37.071 Y-11.801 E1.4875
G1 X-37.107 Y-11.801 E1.4923
G1 X-37.233 Y-11.726 E1.5118
G1 X-38.201 Y-11.729 E1.6406
G1 X-38.469 Y-11.866 E1.6807
G1 X-38.822 Y-11.866 E1.7276
G1 X-39.167 Y-12.206 E1.7920
G1 X-39.428 Y-12.346 E1.8314
G1 X-40.228 Y-13.113 E1.9789
G1 X-41.523 Y-13.566 E2.1614
G1 X-41.666 Y-11.915 E2.3819
G1 X-41.679 Y-11.870 E2.3881
G1 X-41.884 Y-11.867 E2.4154
G1 X-42.080 Y-11.514 E2.4692
G1 X-42.515 Y-11.313 E2.5329
G1 X-42.518 Y-11.082 E2.5636
G1 X-42.536 Y-11.076 E2.5662
G1 X-42.626 Y-11.076 E2.5782
G1 X-43.109 Y-11.481 E2.6621
G1 X-43.433 Y-11.854 E2.7277
G1 X-43.433 Y-12.243 E2.7795
G1 X-43.495 Y-12.436 E2.8065
G1 X-43.495 Y-13.012 E2.8831
G1 X-43.520 Y-13.143 E2.9008
G1 X-43.520 Y-14.365 E3.0634
G1 X-43.490 Y-14.470 E3.0780
G1 X-43.486 Y-16.645 E3.3673
G1 X-43.463 Y-16.785 E3.3862
G1 X-43.463 Y-17.500 E3.4813
G1 X-43.486 Y-17.664 E3.5033
G1 X-43.491 Y-19.827 E3.7910
G1 X-43.520 Y-19.961 E3.8094
G1 X-43.520 Y-21.962 E4.0755
G1 X-43.499 Y-22.068 E4.0899
G1 X-43.499 Y-22.628 E4.1644
G1 X-43.454 Y-22.745 E4.1811
G1 X-43.327 Y-22.756 E4.1981
G1 X-42.764 Y-23.287 E4.3010
G1 X-42.752 Y-23.428 E4.3198
G1 X-42.485 Y-23.427 E4.3553
G1 X-41.979 Y-22.943 E4.4485
G1 X-41.646 Y-22.588 E4.5133
G1 X-41.651 Y-21.740 E4.6262
G1 X-41.729 Y-21.541 E4.6546
G1 X-41.729 Y-21.125 E4.7098
G1 X-41.891 Y-20.852 E4.7521
G1 X-41.891 Y-20.144 E4.8463
G1 X-41.698 Y-19.708 E4.9098
G1 X-41.698 Y-19.325 E4.9606
G1 X-41.675 Y-19.080 E4.9934
G1 X-41.666 Y-17.697 E5.1774
G1 X-41.602 Y-17.484 E5.2069
G1 X-41.595 Y-16.929 E5.2808
G1 X-41.541 Y-16.551 E5.3317
G1 X-41.274 Y-16.164 E5.3942
G1 X-40.707 Y-15.594 E5.5012
G1 X-40.537 Y-15.320 E5.5441
G1 X-40.007 Y-14.776 E5.6451
G1 X-39.178 Y-13.944 E5.8014
G1 X-38.379 Y-13.472 E5.9248
G1 X-37.591 Y-13.974 E6.0492
G1 X-37.466 Y-14.484 E6.1190
G1 X-37.466 Y-16.612 E6.4021
G1 X-37.430 Y-16.742 E6.4200
G1 X-37.430 Y-17.398 E6.5074
G1 X-37.412 Y-17.564 E6.5296
G1 X-37.412 Y-18.757 E6.6883
G1 X-37.326 Y-18.941 E6.7153
G1 X-37.326 Y-19.543 E6.7954
G1 X-37.283 Y-19.814 E6.8319
G1 X-37.283 Y-20.115 E6.8720
G1 X-37.112 Y-20.429 E6.9196
G1 X-37.112 Y-20.529 E6.9328
G1 X-36.893 Y-20.710 E6.9706
G1 X-36.809 Y-21.300 E7.0498
G1 X-36.809 Y-22.873 E7.2592
G1 X-36.755 Y-23.613 E7.3579
G1 X-36.753 Y-23.655 E7.3634
G1 X-36.216 Y-23.776 E7.4366
G1 X-36.216 Y-24.095 E7.4790
G1 X-36.194 Y-24.141 E7.4859
G1 X-35.958 Y-24.058 E7.5192
G1 X-35.712 Y-24.058 E7.5518
G1 X-35.606 Y-23.951 E7.5719
G1 X-35.347 Y-23.391 E7.6540
G1 X-35.347 Y-23.383 E7.6551
G1 X-35.315 Y-23.321 E7.6644
G1 X-35.293 Y-23.275 E7.6712
G1 X-35.287 Y-23.268 E7.6723
G1 X-35.130 Y-22.967 E7.7176
G1 X-35.267 Y-22.915 E7.7371
G1 X-35.465 Y-22.314 E7.8214
G1 X-35.465 Y-21.410 E7.9416
G1 X-35.543 Y-19.902 E8.1425
G1 X-35.558 Y-18.580 E8.3184
G1 X-35.586 Y-18.442 E8.3371
G1 X-35.586 Y-17.833 E8.4182
G1 X-35.612 Y-17.673 E8.4397
G1 X-35.612 Y-17.169 E8.5068
G1 X-35.675 Y-16.982 E8.5330
G1 X-35.675 Y-16.075 E8.6537
G1 X-35.642 Y-15.381 E8.7461
G1 X-35.415 Y-14.843 E8.8237
G1 X-34.390 Y-14.007 E8.9998
G1 X-34.242 Y-13.990 E9.0196
G1 X-34.114 Y-13.862 E9.0436
G1 X-33.184 Y-13.619 E9.1715
G1 X-32.167 Y-13.715 E9.3075
G1 X-31.543 Y-13.979 E9.3976
G1 X-31.470 Y-15.067 E9.5426
G1 X-31.423 Y-15.198 E9.5611
G1 X-31.423 Y-15.746 E9.6340
G1 X-31.344 Y-15.888 E9.6557
