; G-Code generated by Simplify3D(R) Version 3.1.0
; Oct 17, 2016 at 12:27:21 AM
; Settings Summary
;   processName,Process2
;   applyToModels,v3_penholder
;   profileName,SeeMeCNC Orion (modified)
;   profileVersion,2016-09-25 17:24:38
;   baseProfile,
;   printMaterial,PLA
;   printQuality,Medium
;   printExtruders,
;   extruderName,Primary Extruder
;   extruderToolheadNumber,0
;   extruderDiameter,0.5
;   extruderAutoWidth,1
;   extruderWidth,0.6
;   extrusionMultiplier,0.95
;   extruderUseRetract,1
;   extruderRetractionDistance,8.4
;   extruderExtraRestartDistance,0
;   extruderRetractionZLift,0.1
;   extruderRetractionSpeed,3600
;   extruderUseCoasting,0
;   extruderCoastingDistance,1
;   extruderUseWipe,0
;   extruderWipeDistance,5
;   primaryExtruder,0
;   layerHeight,0.25
;   topSolidLayers,3
;   bottomSolidLayers,3
;   perimeterOutlines,3
;   printPerimetersInsideOut,1
;   startPointOption,2
;   startPointOriginX,0
;   startPointOriginY,0
;   startPointOriginZ,300
;   sequentialIslands,0
;   spiralVaseMode,0
;   firstLayerHeightPercentage,100
;   firstLayerWidthPercentage,200
;   firstLayerUnderspeed,0.3
;   useRaft,0
;   raftExtruder,0
;   raftLayers,3
;   raftOffset,3
;   raftSeparationDistance,0.14
;   raftInfill,85
;   disableRaftBaseLayers,0
;   useSkirt,1
;   skirtExtruder,0
;   skirtLayers,1
;   skirtOutlines,3
;   skirtOffset,2
;   usePrimePillar,0
;   primePillarExtruder,999
;   primePillarWidth,12
;   primePillarLocation,7
;   primePillarSpeedMultiplier,1
;   useOozeShield,0
;   oozeShieldExtruder,999
;   oozeShieldOffset,2
;   oozeShieldOutlines,1
;   oozeShieldSidewallShape,1
;   oozeShieldSidewallAngle,30
;   oozeShieldSpeedMultiplier,1
;   infillExtruder,0
;   internalInfillPattern,Fast Honeycomb
;   externalInfillPattern,Rectilinear
;   infillPercentage,15
;   outlineOverlapPercentage,15
;   infillExtrusionWidthPercentage,150
;   minInfillLength,5
;   infillLayerInterval,1
;   infillAngles,0
;   overlapInfillAngles,0
;   generateSupport,1
;   supportExtruder,0
;   supportInfillPercentage,25
;   supportExtraInflation,0
;   denseSupportLayers,0
;   denseSupportInfillPercentage,70
;   supportLayerInterval,1
;   supportHorizontalPartOffset,1
;   supportUpperSeparationLayers,1
;   supportLowerSeparationLayers,1
;   supportType,0
;   supportGridSpacing,4
;   maxOverhangAngle,45
;   supportAngles,45
;   temperatureName,Primary Extruder,Heated Bed
;   temperatureNumber,0,1
;   temperatureSetpointCount,2,1
;   temperatureSetpointLayers,1,2,1
;   temperatureSetpointTemperatures,215,200,60
;   temperatureStabilizeAtStartup,1,1
;   temperatureHeatedBed,0,1
;   temperatureRelayBetweenLayers,0,0
;   temperatureRelayBetweenLoops,0,0
;   fanLayers,1,2
;   fanSpeeds,0,100
;   blipFanToFullPower,1
;   adjustSpeedForCooling,1
;   minSpeedLayerTime,15
;   minCoolingSpeedSlowdown,20
;   increaseFanForCooling,0
;   minFanLayerTime,60
;   maxCoolingFanSpeed,100
;   increaseFanForBridging,0
;   bridgingFanSpeed,100
;   use5D,1
;   relativeEdistances,0
;   allowEaxisZeroing,1
;   independentExtruderAxes,0
;   includeM10123,0
;   stickySupport,1
;   applyToolheadOffsets,0
;   gcodeXoffset,0
;   gcodeYoffset,0
;   gcodeZoffset,0
;   overrideMachineDefinition,1
;   machineTypeOverride,1
;   strokeXoverride,108
;   strokeYoverride,108
;   strokeZoverride,241
;   originOffsetXoverride,54
;   originOffsetYoverride,54
;   originOffsetZoverride,0
;   homeXdirOverride,0
;   homeYdirOverride,0
;   homeZdirOverride,1
;   flipXoverride,1
;   flipYoverride,-1
;   flipZoverride,1
;   toolheadOffsets,0,0|0,0|0,0|0,0|0,0|0,0
;   overrideFirmwareConfiguration,1
;   firmwareTypeOverride,RepRap (Marlin/Repetier/Sprinter)
;   GPXconfigOverride,r2
;   baudRateOverride,250000
;   overridePrinterModels,1
;   printerModelsOverride
;   startingGcode,G28 ; home all axes
;   layerChangeGcode,
;   retractionGcode,
;   toolChangeGcode,
;   endingGcode,M104 S0 ; turn off extruder,M140 S0 ; turn off bed,G28 ; home axes,M84 ; disable motors
;   exportFileFormat,gcode
;   celebration,0
;   celebrationSong,Random Song
;   postProcessing,
;   defaultSpeed,4800
;   outlineUnderspeed,0.5
;   solidInfillUnderspeed,0.8
;   supportUnderspeed,0.8
;   rapidXYspeed,9000
;   rapidZspeed,1200
;   minBridgingArea,50
;   bridgingExtraInflation,0
;   bridgingExtrusionMultiplier,0.95
;   bridgingSpeedMultiplier,0.7
;   filamentDiameter,1.75
;   filamentPricePerKg,46
;   filamentDensity,1.25
;   useMinPrintHeight,0
;   minPrintHeight,0
;   useMaxPrintHeight,0
;   maxPrintHeight,0
;   useDiaphragm,0
;   diaphragmLayerInterval,20
;   robustSlicing,1
;   mergeAllIntoSolid,0
;   onlyRetractWhenCrossingOutline,1
;   retractBetweenLayers,1
;   useRetractionMinTravel,0
;   retractionMinTravel,3
;   retractWhileWiping,1
;   onlyWipeOutlines,1
;   avoidCrossingOutline,0
;   maxMovementDetourFactor,3
;   toolChangeRetractionDistance,12
;   toolChangeExtraRestartDistance,-0.5
;   toolChangeRetractionSpeed,600
;   allowThinWallGapFill,1
;   thinWallAllowedOverlapPercentage,10
;   horizontalSizeCompensation,0
G90
M82
M106 S0
M140 S60
M190 S60
M104 S215 T0
M109 S215 T0
G28 ; home all axes
G92 E0
G1 E-8.4000 F3600
G1 Z0.350 F1200
; layer 1, Z = 0.25
T0
; tool H0.250 W1.200
; skirt
G1 X9.759 Y-5.795 F9000
G1 Z0.250 F1200
G1 E0.0000 F1080
G92 E0
G1 X12.897 Y24.725 E3.6354 F1440
G1 X12.400 Y25.573 E3.7518
G1 X8.806 Y27.126 E4.2157
G1 X7.849 Y26.907 E4.3320
G1 X-1.221 Y16.425 E5.9745
G1 X-1.629 Y16.003 E6.0440
G1 X-2.000 Y15.694 E6.1011
G1 X-2.455 Y15.397 E6.1656
G1 X-2.849 Y15.195 E6.2181
G1 X-3.310 Y15.019 E6.2765
G1 X-3.776 Y14.896 E6.3336
G1 X-4.317 Y14.818 E6.3984
G1 X-4.803 Y14.804 E6.4560
G1 X-5.262 Y14.839 E6.5106
G1 X-5.742 Y14.928 E6.5684
G1 X-6.220 Y15.075 E6.6276
G1 X-7.883 Y15.839 E6.8445
G1 X-8.367 Y15.891 E6.9022
G1 X-10.148 Y15.504 E7.1181
G1 X-10.567 Y15.256 E7.1759
G1 X-17.741 Y6.956 E8.4757
G1 X-25.115 Y4.086 E9.4133
G1 X-25.145 Y4.074 E9.4171
G1 X-25.252 Y4.027 E9.4310
G1 X-25.282 Y4.013 E9.4348
G1 X-25.901 Y3.709 E9.5166
G1 X-25.957 Y3.678 E9.5242
G1 X-26.159 Y3.556 E9.5522
G1 X-26.213 Y3.521 E9.5598
G1 X-26.819 Y3.080 E9.6486
G1 X-26.869 Y3.040 E9.6562
G1 X-27.048 Y2.886 E9.6841
G1 X-27.094 Y2.842 E9.6917
G1 X-27.617 Y2.304 E9.7805
G1 X-27.659 Y2.256 E9.7881
G1 X-27.809 Y2.074 E9.8161
G1 X-27.847 Y2.022 E9.8237
G1 X-28.270 Y1.404 E9.9125
G1 X-28.304 Y1.349 E9.9201
G1 X-28.420 Y1.144 E9.9480
G1 X-28.449 Y1.087 E9.9556
G1 X-28.760 Y0.405 E10.0444
G1 X-28.785 Y0.346 E10.0520
G1 X-28.864 Y0.124 E10.0800
G1 X-28.883 Y0.062 E10.0876
G1 X-29.073 Y-0.662 E10.1763
G1 X-29.087 Y-0.725 E10.1840
G1 X-29.127 Y-0.957 E10.2119
G1 X-29.135 Y-1.021 E10.2195
G1 X-29.194 Y-1.709 E10.3013
G1 X-29.197 Y-1.741 E10.3051
G1 X-29.202 Y-1.859 E10.3191
G1 X-29.202 Y-1.891 E10.3229
G1 X-29.202 Y-25.811 E13.1572
G1 X-29.201 Y-25.858 E13.1627
G1 X-29.190 Y-26.029 E13.1830
G1 X-29.186 Y-26.076 E13.1886
G1 X-29.123 Y-26.577 E13.2485
G1 X-29.106 Y-26.669 E13.2596
G1 X-29.021 Y-27.001 E13.3002
G1 X-28.992 Y-27.090 E13.3113
G1 X-28.777 Y-27.641 E13.3814
G1 X-28.737 Y-27.726 E13.3924
G1 X-28.573 Y-28.027 E13.4331
G1 X-28.523 Y-28.106 E13.4441
G1 X-28.178 Y-28.587 E13.5142
G1 X-28.119 Y-28.659 E13.5253
G1 X-27.886 Y-28.910 E13.5659
G1 X-27.819 Y-28.975 E13.5770
G1 X-27.366 Y-29.355 E13.6471
G1 X-27.291 Y-29.411 E13.6581
G1 X-27.003 Y-29.597 E13.6988
G1 X-26.921 Y-29.643 E13.7099
G1 X-26.389 Y-29.900 E13.7799
G1 X-26.302 Y-29.935 E13.7910
G1 X-25.977 Y-30.045 E13.8316
G1 X-25.887 Y-30.069 E13.8427
G1 X-25.307 Y-30.187 E13.9128
G1 X-25.215 Y-30.200 E13.9239
G1 X-24.873 Y-30.226 E13.9645
G1 X-24.779 Y-30.227 E13.9756
G1 X-24.188 Y-30.198 E14.0457
G1 X-24.096 Y-30.188 E14.0567
G1 X-23.758 Y-30.129 E14.0973
G1 X-23.667 Y-30.107 E14.1084
G1 X-23.184 Y-29.959 E14.1683
G1 X-23.139 Y-29.944 E14.1739
G1 X-22.979 Y-29.883 E14.1942
G1 X-22.936 Y-29.865 E14.1997
G1 X-16.741 Y-27.082 E15.0045
G1 X-13.978 Y-29.472 E15.4374
G1 X-13.594 Y-29.650 E15.4875
G1 X-12.039 Y-29.890 E15.6740
G1 X-11.620 Y-29.837 E15.7241
G1 X1.264 Y-24.284 E17.3864
G1 X1.280 Y-24.277 E17.3884
G1 X1.338 Y-24.250 E17.3960
G1 X1.353 Y-24.243 E17.3980
G1 X2.395 Y-23.736 E17.5353
G1 X2.426 Y-23.720 E17.5394
G1 X2.538 Y-23.659 E17.5545
G1 X2.568 Y-23.641 E17.5586
G1 X3.585 Y-23.023 E17.6997
G1 X3.615 Y-23.005 E17.7038
G1 X3.720 Y-22.934 E17.7189
G1 X3.749 Y-22.914 E17.7230
G1 X4.705 Y-22.204 E17.8641
G1 X4.732 Y-22.183 E17.8682
G1 X4.831 Y-22.103 E17.8833
G1 X4.857 Y-22.080 E17.8874
G1 X5.744 Y-21.285 E18.0285
G1 X5.769 Y-21.262 E18.0326
G1 X5.860 Y-21.172 E18.0477
G1 X5.884 Y-21.147 E18.0518
G1 X6.694 Y-20.274 E18.1928
G1 X6.717 Y-20.248 E18.1970
G1 X6.799 Y-20.151 E18.2120
G1 X6.821 Y-20.124 E18.2161
G1 X7.546 Y-19.180 E18.3572
G1 X7.566 Y-19.152 E18.3613
G1 X7.639 Y-19.047 E18.3764
G1 X7.658 Y-19.019 E18.3805
G1 X8.293 Y-18.011 E18.5216
G1 X8.311 Y-17.982 E18.5257
G1 X8.374 Y-17.871 E18.5408
G1 X8.390 Y-17.840 E18.5449
G1 X8.930 Y-16.779 E18.6860
G1 X8.945 Y-16.748 E18.6901
G1 X8.997 Y-16.632 E18.7052
G1 X9.011 Y-16.600 E18.7093
G1 X9.449 Y-15.493 E18.8504
G1 X9.461 Y-15.460 E18.8545
G1 X9.503 Y-15.340 E18.8695
G1 X9.513 Y-15.307 E18.8737
G1 X9.848 Y-14.164 E19.0148
G1 X9.857 Y-14.131 E19.0189
G1 X9.887 Y-14.007 E19.0339
G1 X9.895 Y-13.973 E19.0380
G1 X10.122 Y-12.804 E19.1791
G1 X10.128 Y-12.770 E19.1832
G1 X10.147 Y-12.644 E19.1983
G1 X10.151 Y-12.610 E19.2024
G1 X10.270 Y-11.425 E19.3436
G1 X10.273 Y-11.390 E19.3477
G1 X10.280 Y-11.262 E19.3629
G1 X10.281 Y-11.226 E19.3671
G1 X10.289 Y-9.985 E19.5142
G1 X10.287 Y-9.926 E19.5212
G1 X10.271 Y-9.711 E19.5467
G1 X10.265 Y-9.653 E19.5537
G1 X10.160 Y-8.961 E19.6366
G1 X10.143 Y-8.879 E19.6465
G1 X10.064 Y-8.583 E19.6829
G1 X10.038 Y-8.503 E19.6928
G1 X9.764 Y-7.803 E19.7818
G1 X9.729 Y-7.727 E19.7917
G1 X9.586 Y-7.456 E19.8281
G1 X9.543 Y-7.384 E19.8380
G1 X9.418 Y-7.199 E19.8645
G1 X9.500 Y-6.995 E19.8906
G1 X9.525 Y-6.923 E19.8995
G1 X9.602 Y-6.658 E19.9324
G1 X9.620 Y-6.584 E19.9413
G1 X9.734 Y-5.964 E20.0160
G1 X9.739 Y-5.934 E20.0196
G1 X9.755 Y-5.825 E20.0326
G1 X9.759 Y-5.795 E20.0362
G1 X9.162 Y-5.728 F9000
G92 E0
G1 X12.280 Y24.591 E3.6115 F1440
G1 X11.982 Y25.100 E3.6813
G1 X8.749 Y26.497 E4.0986
G1 X8.174 Y26.366 E4.1684
G1 X-0.778 Y16.020 E5.7896
G1 X-1.220 Y15.562 E5.8649
G1 X-1.642 Y15.211 E5.9300
G1 X-2.154 Y14.877 E6.0023
G1 X-2.605 Y14.646 E6.0624
G1 X-3.126 Y14.447 E6.1285
G1 X-3.657 Y14.307 E6.1936
G1 X-4.265 Y14.220 E6.2663
G1 X-4.817 Y14.203 E6.3318
G1 X-5.340 Y14.243 E6.3940
G1 X-5.886 Y14.345 E6.4597
G1 X-6.434 Y14.513 E6.5277
G1 X-8.045 Y15.253 E6.7377
G1 X-8.335 Y15.284 E6.7723
G1 X-9.926 Y14.939 E6.9651
G1 X-10.177 Y14.790 E6.9998
G1 X-17.384 Y6.451 E8.3057
G1 X-24.891 Y3.529 E9.2602
G1 X-24.909 Y3.522 E9.2625
G1 X-25.005 Y3.480 E9.2749
G1 X-25.023 Y3.472 E9.2772
G1 X-25.625 Y3.176 E9.3567
G1 X-25.659 Y3.157 E9.3613
G1 X-25.838 Y3.049 E9.3861
G1 X-25.871 Y3.028 E9.3907
G1 X-26.456 Y2.602 E9.4764
G1 X-26.486 Y2.578 E9.4810
G1 X-26.645 Y2.441 E9.5059
G1 X-26.673 Y2.414 E9.5105
G1 X-27.177 Y1.895 E9.5962
G1 X-27.203 Y1.867 E9.6008
G1 X-27.336 Y1.704 E9.6257
G1 X-27.359 Y1.673 E9.6302
G1 X-27.768 Y1.076 E9.7160
G1 X-27.788 Y1.043 E9.7205
G1 X-27.891 Y0.860 E9.7454
G1 X-27.909 Y0.826 E9.7500
G1 X-28.209 Y0.168 E9.8357
G1 X-28.224 Y0.132 E9.8403
G1 X-28.294 Y-0.066 E9.8652
G1 X-28.306 Y-0.103 E9.8698
G1 X-28.490 Y-0.802 E9.9555
G1 X-28.498 Y-0.840 E9.9601
G1 X-28.534 Y-1.047 E9.9849
G1 X-28.539 Y-1.085 E9.9895
G1 X-28.596 Y-1.754 E10.0690
G1 X-28.597 Y-1.773 E10.0713
G1 X-28.602 Y-1.878 E10.0837
G1 X-28.602 Y-1.897 E10.0860
G1 X-28.602 Y-25.802 E12.9185
G1 X-28.601 Y-25.830 E12.9218
G1 X-28.592 Y-25.982 E12.9399
G1 X-28.589 Y-26.010 E12.9432
G1 X-28.530 Y-26.484 E12.9998
G1 X-28.520 Y-26.539 E13.0065
G1 X-28.444 Y-26.835 E13.0427
G1 X-28.427 Y-26.889 E13.0493
G1 X-28.225 Y-27.405 E13.1150
G1 X-28.201 Y-27.455 E13.1216
G1 X-28.055 Y-27.724 E13.1578
G1 X-28.025 Y-27.771 E13.1644
G1 X-27.702 Y-28.221 E13.2301
G1 X-27.667 Y-28.265 E13.2367
G1 X-27.459 Y-28.489 E13.2729
G1 X-27.418 Y-28.527 E13.2796
G1 X-26.994 Y-28.884 E13.3452
G1 X-26.949 Y-28.917 E13.3519
G1 X-26.692 Y-29.083 E13.3881
G1 X-26.644 Y-29.111 E13.3947
G1 X-26.145 Y-29.351 E13.4604
G1 X-26.093 Y-29.373 E13.4670
G1 X-25.803 Y-29.470 E13.5032
G1 X-25.749 Y-29.485 E13.5099
G1 X-25.206 Y-29.595 E13.5755
G1 X-25.151 Y-29.603 E13.5822
G1 X-24.846 Y-29.626 E13.6184
G1 X-24.790 Y-29.627 E13.6250
G1 X-24.236 Y-29.600 E13.6907
G1 X-24.181 Y-29.594 E13.6973
G1 X-23.880 Y-29.541 E13.7335
G1 X-23.825 Y-29.528 E13.7401
G1 X-23.369 Y-29.388 E13.7967
G1 X-23.342 Y-29.379 E13.8000
G1 X-23.199 Y-29.325 E13.8181
G1 X-23.173 Y-29.314 E13.8215
G1 X-16.638 Y-26.377 E14.6705
G1 X-13.649 Y-28.963 E15.1387
G1 X-13.419 Y-29.070 E15.1688
G1 X-12.031 Y-29.284 E15.3352
G1 X-11.779 Y-29.252 E15.3653
G1 X1.023 Y-23.734 E17.0171
G1 X1.033 Y-23.730 E17.0184
G1 X1.084 Y-23.706 E17.0251
G1 X1.094 Y-23.702 E17.0263
G1 X2.126 Y-23.199 E17.1624
G1 X2.145 Y-23.190 E17.1649
G1 X2.244 Y-23.135 E17.1783
G1 X2.262 Y-23.125 E17.1808
G1 X3.268 Y-22.514 E17.3202
G1 X3.286 Y-22.503 E17.3227
G1 X3.380 Y-22.440 E17.3361
G1 X3.397 Y-22.428 E17.3386
G1 X4.342 Y-21.727 E17.4780
G1 X4.358 Y-21.714 E17.4805
G1 X4.446 Y-21.642 E17.4939
G1 X4.462 Y-21.629 E17.4964
G1 X5.338 Y-20.843 E17.6358
G1 X5.354 Y-20.829 E17.6383
G1 X5.434 Y-20.749 E17.6517
G1 X5.449 Y-20.734 E17.6542
G1 X6.249 Y-19.871 E17.7936
G1 X6.263 Y-19.856 E17.7961
G1 X6.336 Y-19.769 E17.8095
G1 X6.349 Y-19.753 E17.8120
G1 X7.066 Y-18.820 E17.9514
G1 X7.078 Y-18.803 E17.9539
G1 X7.143 Y-18.710 E17.9673
G1 X7.154 Y-18.693 E17.9698
G1 X7.782 Y-17.697 E18.1092
G1 X7.793 Y-17.679 E18.1117
G1 X7.849 Y-17.581 E18.1251
G1 X7.859 Y-17.562 E18.1276
G1 X8.392 Y-16.513 E18.2670
G1 X8.401 Y-16.495 E18.2695
G1 X8.447 Y-16.391 E18.2829
G1 X8.455 Y-16.372 E18.2854
G1 X8.889 Y-15.278 E18.4248
G1 X8.896 Y-15.259 E18.4273
G1 X8.933 Y-15.151 E18.4407
G1 X8.940 Y-15.132 E18.4432
G1 X9.270 Y-14.002 E18.5826
G1 X9.276 Y-13.982 E18.5851
G1 X9.303 Y-13.872 E18.5985
G1 X9.307 Y-13.852 E18.6010
G1 X9.532 Y-12.696 E18.7404
G1 X9.536 Y-12.676 E18.7429
G1 X9.552 Y-12.564 E18.7563
G1 X9.555 Y-12.543 E18.7588
G1 X9.672 Y-11.372 E18.8983
G1 X9.674 Y-11.351 E18.9008
G1 X9.680 Y-11.237 E18.9143
G1 X9.681 Y-11.216 E18.9168
G1 X9.689 Y-9.993 E19.0617
G1 X9.688 Y-9.958 E19.0659
G1 X9.674 Y-9.766 E19.0887
G1 X9.670 Y-9.731 E19.0928
G1 X9.569 Y-9.067 E19.1724
G1 X9.559 Y-9.018 E19.1783
G1 X9.489 Y-8.754 E19.2107
G1 X9.473 Y-8.706 E19.2167
G1 X9.211 Y-8.038 E19.3017
G1 X9.190 Y-7.992 E19.3077
G1 X9.063 Y-7.750 E19.3401
G1 X9.037 Y-7.707 E19.3460
G1 X8.741 Y-7.271 E19.4085
G1 X8.938 Y-6.784 E19.4707
G1 X8.953 Y-6.741 E19.4761
G1 X9.022 Y-6.504 E19.5053
G1 X9.032 Y-6.460 E19.5107
G1 X9.143 Y-5.861 E19.5829
G1 X9.146 Y-5.843 E19.5850
G1 X9.160 Y-5.746 E19.5967
G1 X9.162 Y-5.728 E19.5988
G1 X8.566 Y-5.660 F9000
G92 E0
G1 X11.663 Y24.457 E3.5875 F1440
G1 X11.564 Y24.627 E3.6107
G1 X8.691 Y25.868 E3.9815
G1 X8.500 Y25.824 E4.0048
G1 X-0.335 Y15.614 E5.6046
G1 X-0.811 Y15.122 E5.6858
G1 X-1.285 Y14.728 E5.7588
G1 X-1.852 Y14.357 E5.8390
G1 X-2.360 Y14.097 E5.9067
G1 X-2.942 Y13.874 E5.9805
G1 X-3.538 Y13.718 E6.0535
G1 X-4.213 Y13.621 E6.1343
G1 X-4.831 Y13.602 E6.2076
G1 X-5.418 Y13.647 E6.2774
G1 X-6.029 Y13.761 E6.3510
G1 X-6.648 Y13.951 E6.4277
G1 X-8.206 Y14.667 E6.6309
G1 X-8.303 Y14.677 E6.6424
G1 X-9.703 Y14.373 E6.8121
G1 X-9.787 Y14.323 E6.8237
G1 X-17.028 Y5.946 E8.1357
G1 X-24.668 Y2.973 E9.1071
G1 X-24.674 Y2.970 E9.1079
G1 X-24.758 Y2.933 E9.1188
G1 X-24.764 Y2.930 E9.1195
G1 X-25.349 Y2.643 E9.1968
G1 X-25.360 Y2.637 E9.1983
G1 X-25.518 Y2.542 E9.2201
G1 X-25.528 Y2.535 E9.2216
G1 X-26.093 Y2.124 E9.3043
G1 X-26.103 Y2.116 E9.3059
G1 X-26.242 Y1.996 E9.3277
G1 X-26.252 Y1.987 E9.3292
G1 X-26.738 Y1.486 E9.4119
G1 X-26.747 Y1.477 E9.4134
G1 X-26.863 Y1.334 E9.4353
G1 X-26.871 Y1.324 E9.4368
G1 X-27.265 Y0.748 E9.5195
G1 X-27.272 Y0.737 E9.5210
G1 X-27.362 Y0.576 E9.5428
G1 X-27.368 Y0.565 E9.5444
G1 X-27.658 Y-0.070 E9.6270
G1 X-27.663 Y-0.082 E9.6286
G1 X-27.725 Y-0.255 E9.6504
G1 X-27.729 Y-0.268 E9.6519
